!!!!SEGMENT: pl-kk--kk-i-478--006_vogel--missa-dona-nobis.krn
!!!cenid: 17xx:1897
!!!COM: Vogel
!!!COM-rism: pe30003636
!!!CDT:
!!!CNT:
!!!OTL: Missa – Dona nobis
!!!PDT:
!!!AGN: Sacred; Mass
!!!SMS-siglum: PL-Kk
!!!SMS-shelfmark: Kk.I.478
!!!NIFC-rismID: 1001140255
!!!URL-scan: http://repozytorium.nifc.pl/skany/pl-kk-nut--i-478
!!!ONB-nifc: UWAGA: części Mszy: 1. Kyrie, 2. Gloria, 3. Credo, 4. Sanctus, 5. Agnus Dei, 6. Dona nobis
!!!SMS-variant:
!!!SMS-altvar:
**kern	**fba	**dynam	**kern	**dynam	**kern	**dynam	**kern	**dynam	**kern	**text	**kern	**text	**kern	**text	**dynam	**kern	**text	**kern	**kern	**kern	**kern
*part12	*part12	*part12	*part11	*part11	*part10	*part10	*part9	*part9	*part8	*part8	*part7	*part7	*part6	*part6	*part6	*part5	*part5	*part4	*part3	*part2	*part1
*staff12	*	*	*staff11	*	*staff10	*	*staff9	*	*staff8	*staff8	*staff7	*staff7	*staff6	*staff6	*	*staff5	*staff5	*staff4	*staff3	*staff2	*staff1
*I"Organo.	*	*	*I"Viola.	*	*I"Violino Secondo.	*	*I"Violino Primo	*	*I"Baſso. .	*	*I"Tenore.	*	*I"Alto	*	*	*I"Canto	*	*I"Corno Secondo.	*I"Corno Primo	*I"Oboe Secondo.	*I"Oboe Primo.
*I'org	*	*	*I'vla	*	*I'vl 2	*	*I'vl 1	*	*I'B	*	*I'T	*	*I'A	*	*	*I'S	*	*I'cor 2	*I'cor 1	*I'ob 2	*I'ob 1
*group5	*	*	*group4	*	*group4	*	*group4	*	*group3	*	*group3	*	*group3	*	*	*group3	*	*group2	*group2	*group1	*group1
*clefF4	*	*	*clefC3	*	*clefG2	*	*clefG2	*	*clefF4	*	*clefC4	*	*clefC3	*	*	*clefC1	*	*clefG2	*clefG2	*clefG2	*clefG2
*	*	*	*	*	*	*	*	*	*	*	*	*	*	*	*	*	*	*ITrd6c10	*ITrd6c10	*	*
*k[f#c#]	*	*	*k[f#c#]	*	*k[f#c#]	*	*k[f#c#]	*	*k[f#c#]	*	*k[f#c#]	*	*k[f#c#]	*	*	*k[f#c#]	*	*k[f#c#]	*k[f#c#]	*k[f#c#]	*k[f#c#]
*M4/4	*	*	*M4/4	*	*M4/4	*	*M4/4	*	*M4/4	*	*M4/4	*	*M4/4	*	*	*M4/4	*	*M4/4	*M4/4	*M4/4	*M4/4
*met(c)	*	*	*met(c)	*	*met(c)	*	*met(c)	*	*met(c)	*	*met(c)	*	*met(c)	*	*	*met(c)	*	*met(c)	*met(c)	*met(c)	*met(c)
=1	=1	=1	=1	=1	=1	=1	=1	=1	=1	=1	=1	=1	=1	=1	=1	=1	=1	=1	=1	=1	=1
*2\right	*	*	*2\right	*	*2\right	*	*2\right	*	*2\right	*	*2\right	*	*2\right	*	*	*2\right	*	*2\right	*2\right	*2\right	*2\right
!LO:TX:b:t=Dona	!	!	!	!	!	!	!	!	!	!	!	!	!	!	!	!	!	!	!	!	!
!LO:TX:a:t=allo aſsai	!	!	!LO:TX:b:t=Dona	!	!LO:TX:b:t=Dona	!	!LO:TX:b:t=Dona	!	!	!	!	!	!	!	!	!	!	!	!	!LO:TX:b:t=Dona.	!LO:TX:a:t=allo
!LO:TX:a:t=Solo	!	!	!LO:TX:a:t=allo	!	!LO:TX:a:t=allo aſai	!LO:DY:b:t=for	!LO:TX:a:t=allo aſai	!LO:DY:b:t=for	!	!	!LO:TX:a:t=allo	!	!LO:TX:a:t=allo aſai	!	!	!LO:TX:a:t=allo aſsai	!	!LO:TX:b:t=Dona	!LO:TX:b:t=Dona nobis	!LO:TX:a:t=allo	!LO:TX:b:t=Dona
4D\	.	.	4d\	.	4f#/	f	4dd\	f	0r	.	0r	.	0r	.	.	0r	.	4d\	4f#\	4dd\	4ff#\
4D\	.	.	4d\	.	16f#/LL	.	(16d/LL	.	.	.	.	.	.	.	.	.	.	4d\	4f#\	4dd\	4ff#\
.	.	.	.	.	16g/	.	16e/)	.	.	.	.	.	.	.	.	.	.	.	.	.	.
.	.	.	.	.	16f#/	.	(16d/	.	.	.	.	.	.	.	.	.	.	.	.	.	.
.	.	.	.	.	16g/JJ	.	16e/JJ)	.	.	.	.	.	.	.	.	.	.	.	.	.	.
4D\	.	.	8d\L	.	4f#/	.	4d/	.	.	.	.	.	.	.	.	.	.	4d\	4f#\	4dd\	4ff#\
.	.	.	8d\	.	.	.	.	.	.	.	.	.	.	.	.	.	.	.	.	.	.
4r	.	.	8d\	.	8r	.	8r	.	.	.	.	.	.	.	.	.	.	4r	4r	4r	4r
.	.	.	8d\J	.	8d/	.	8a/	.	.	.	.	.	.	.	.	.	.	.	.	.	.
=2	=2	=2	=2	=2	=2	=2	=2	=2	=2	=2	=2	=2	=2	=2	=2	=2	=2	=2	=2	=2	=2
*	*	*	*tremolo	*	*	*	*	*	*	*	*	*	*	*	*	*	*	*	*	*	*
!	!	!	!	!	!	!	!	!LO:DY:b	!	!	!	!	!	!	!	!	!	!	!	!	!
0r	.	.	8d\L	.	8b/L	.	8dd\	p	.	.	.	.	.	.	.	.	.	0r	0r	0r	0r
.	.	.	8d\	.	8r	.	8r	.	.	.	.	.	.	.	.	.	.	.	.	.	.
.	.	.	8d\	.	8a/	.	8cc#\	.	.	.	.	.	.	.	.	.	.	.	.	.	.
.	.	.	8d\J	.	8r	.	8r	.	.	.	.	.	.	.	.	.	.	.	.	.	.
.	.	.	8d\L	.	8g/	.	8b\	.	.	.	.	.	.	.	.	.	.	.	.	.	.
.	.	.	8d\	.	8r	.	8r	.	.	.	.	.	.	.	.	.	.	.	.	.	.
.	.	.	8d\	.	8f#/J	.	8a\	.	.	.	.	.	.	.	.	.	.	.	.	.	.
.	.	.	8d\J	.	8r	.	8r	.	.	.	.	.	.	.	.	.	.	.	.	.	.
=3	=3	=3	=3	=3	=3	=3	=3	=3	=3	=3	=3	=3	=3	=3	=3	=3	=3	=3	=3	=3	=3
.	.	.	8d\L	.	8g/L	.	8b/	.	1r	.	1r	.	1r	.	.	1r	.	.	.	.	.
.	.	.	8d\	.	8r	.	8r	.	.	.	.	.	.	.	.	.	.	.	.	.	.
.	.	.	8d\	.	8f#/	.	8a/	.	.	.	.	.	.	.	.	.	.	.	.	.	.
.	.	.	8d\J	.	8r	.	8r	.	.	.	.	.	.	.	.	.	.	.	.	.	.
.	.	.	8d\L	.	8e/	.	8g/	.	.	.	.	.	.	.	.	.	.	.	.	.	.
.	.	.	8d\	.	8r	.	8r	.	.	.	.	.	.	.	.	.	.	.	.	.	.
.	.	.	8d\	.	8d/J	.	8f#/	.	.	.	.	.	.	.	.	.	.	.	.	.	.
.	.	.	8d\J	.	8r	.	8r	.	.	.	.	.	.	.	.	.	.	.	.	.	.
=4	=4	=4	=4	=4	=4	=4	=4	=4	=4	=4	=4	=4	=4	=4	=4	=4	=4	=4	=4	=4	=4
*tremolo	*	*	*	*	*	*	*	*	*	*	*	*	*	*	*	*	*	*	*	*	*
!	!	!	!	!	!	!LO:DY:b:t=for	!	!LO:DY:b	!	!	!	!	!	!	!	!	!	!	!	!	!
8D\L	7 4 2	.	8e\L	.	8g/	f	2cc#\	f	1D	Do-	1c#	Do-	1e	Do-	.	1g	Do-	2A/	2e\	2cc#\	2gg\
8D\	.	.	8e\	.	4g/	.	.	.	.	.	.	.	.	.	.	.	.	.	.	.	.
8D\	.	.	8e\	.	.	.	.	.	.	.	.	.	.	.	.	.	.	.	.	.	.
8D\J	.	.	8e\J	.	4g/	.	.	.	.	.	.	.	.	.	.	.	.	.	.	.	.
.	.	.	.	.	.	.	8qdd/	.	.	.	.	.	.	.	.	.	.	.	.	.	.
8D\L	.	.	8e\L	.	.	.	8cc#\L	.	.	.	.	.	.	.	.	.	.	2A/	2e\	2cc#\	2gg\
8D\	.	.	8e\	.	4g/	.	16b\L	.	.	.	.	.	.	.	.	.	.	.	.	.	.
.	.	.	.	.	.	.	16cc#\JJ	.	.	.	.	.	.	.	.	.	.	.	.	.	.
.	.	.	.	.	.	.	8qdd/	.	.	.	.	.	.	.	.	.	.	.	.	.	.
8D\	.	.	8e\	.	.	.	8cc#\L	.	.	.	.	.	.	.	.	.	.	.	.	.	.
8D\J	.	.	8e\J	.	8g/	.	16b\L	.	.	.	.	.	.	.	.	.	.	.	.	.	.
.	.	.	.	.	.	.	16cc#\JJ	.	.	.	.	.	.	.	.	.	.	.	.	.	.
=5	=5	=5	=5	=5	=5	=5	=5	=5	=5	=5	=5	=5	=5	=5	=5	=5	=5	=5	=5	=5	=5
!	!	!	!	!	!	!	!	!LO:DY:b	!	!	!	!	!	!	!	!	!	!	!	!	!
4D\	x 8 3	.	8d\L	.	8f#/L	.	8dd\	p	4D\	-na	4d\	-na	4d\	-na	.	4f#/	-na	4d\	4e\	4dd\	4ff#\
.	.	.	8d\	.	8r	.	8r	.	.	.	.	.	.	.	.	.	.	.	.	.	.
4r	.	.	8d\	.	8a/	.	8cc#\	.	4r	.	4r	.	4r	.	.	4r	.	4r	4r	4r	4r
.	.	.	8d\J	.	8r	.	8r	.	.	.	.	.	.	.	.	.	.	.	.	.	.
2r	.	.	8d\L	.	8g/	.	8b\	.	2r	.	2r	.	2r	.	.	2r	.	2r	2r	2r	2r
.	.	.	8d\	.	8r	.	8r	.	.	.	.	.	.	.	.	.	.	.	.	.	.
.	.	.	8d\	.	8f#/J	.	8a\	.	.	.	.	.	.	.	.	.	.	.	.	.	.
.	.	.	8d\J	.	8r	.	8r	.	.	.	.	.	.	.	.	.	.	.	.	.	.
=6	=6	=6	=6	=6	=6	=6	=6	=6	=6	=6	=6	=6	=6	=6	=6	=6	=6	=6	=6	=6	=6
1r	.	.	8d\L	.	8g/L	.	8b/	.	1r	.	1r	.	1r	.	.	1r	.	1r	1r	1r	1r
.	.	.	8d\	.	8r	.	8r	.	.	.	.	.	.	.	.	.	.	.	.	.	.
.	.	.	8d\	.	8f#/	.	8a/	.	.	.	.	.	.	.	.	.	.	.	.	.	.
.	.	.	8d\J	.	8r	.	8r	.	.	.	.	.	.	.	.	.	.	.	.	.	.
!	!	!	!	!	!	!	!LO:LB:g=original	!	!	!	!	!	!	!	!	!	!	!	!	!	!
.	.	.	8d\L	.	8e/	.	8g/	.	.	.	.	.	.	.	.	.	.	.	.	.	.
.	.	.	8d\	.	8r	.	8r	.	.	.	.	.	.	.	.	.	.	.	.	.	.
.	.	.	8d\	.	8d/J	.	8f#/	.	.	.	.	.	.	.	.	.	.	.	.	.	.
.	.	.	8d\J	.	8r	.	8r	.	.	.	.	.	.	.	.	.	.	.	.	.	.
!	!	!	!	!	!LO:LB:g=original	!	!	!	!	!	!	!	!	!	!	!	!	!	!	!	!LO:LB:g=original
=7	=7	=7	=7	=7	=7	=7	=7	=7	=7	=7	=7	=7	=7	=7	=7	=7	=7	=7	=7	=7	=7
8D\L	x 7 3	.	8d\L	.	8B/	.	2g/	.	1D	no-	2B\	no-	1e	no-	.	1g	no-	2r	2r	2b\	1gg
8D\	.	.	8d\	.	4B/	.	.	.	.	.	.	.	.	.	.	.	.	.	.	.	.
8D\	.	.	8d\	.	.	.	.	.	.	.	.	.	.	.	.	.	.	.	.	.	.
8D\J	.	.	8d\J	.	8B/	.	.	.	.	.	.	.	.	.	.	.	.	.	.	.	.
!	!	!	!LO:TX:t=P:problem:mixed beam	!	!	!	!	!	!	!	!	!	!	!	!	!	!	!	!	!	!
.	.	.	.	.	.	.	8qa/	.	.	.	.	.	.	.	.	.	.	.	.	.	.
8D\L	.	.	8e\L	.	8c#/	.	8.g/L	.	.	.	2c#\	.	.	.	.	.	.	2A/	2e\	2cc#\	.
8D\	.	.	8e\	.	4c#/	.	.	.	.	.	.	.	.	.	.	.	.	.	.	.	.
.	.	.	.	.	.	.	32f#/LL	.	.	.	.	.	.	.	.	.	.	.	.	.	.
.	.	.	.	.	.	.	32g/JJJ	.	.	.	.	.	.	.	.	.	.	.	.	.	.
.	.	.	.	.	.	.	8qa/	.	.	.	.	.	.	.	.	.	.	.	.	.	.
8D\	.	.	8e\	.	.	.	8.g/L	.	.	.	.	.	.	.	.	.	.	.	.	.	.
8D\J	.	.	8A/J	.	8c#/	.	.	.	.	.	.	.	.	.	.	.	.	.	.	.	.
.	.	.	.	.	.	.	32f#/LL	.	.	.	.	.	.	.	.	.	.	.	.	.	.
.	.	.	.	.	.	.	32g/JJJ	.	.	.	.	.	.	.	.	.	.	.	.	.	.
=8	=8	=8	=8	=8	=8	=8	=8	=8	=8	=8	=8	=8	=8	=8	=8	=8	=8	=8	=8	=8	=8
!	!	!	!	!	!	!	!	!	!	!	!LO:N:vis=2	!	!	!	!	!	!	!	!	!	!
4D\	.	.	4A/	.	2d/	.	2f#/	.	4D\	-bis	4d\	-bis	4d\	-bis	.	4f#/	-bis	2d\	2f#\	2dd\	2ff#\
4F#\	.	.	4r	.	.	.	.	.	4r	.	4r	.	4r	.	.	4r	.	.	.	.	.
4AA/	.	.	2r	.	8f#/L	.	8a/L	.	2r	.	2r	.	2r	.	.	2r	.	8f#\L	8a\L	8ff#\L	8aa\L
.	.	.	.	.	8e/	.	8g/	.	.	.	.	.	.	.	.	.	.	8e\	8g\	(8ee\	8gg\
4r	.	.	.	.	8d/	.	8f#/	.	.	.	.	.	.	.	.	.	.	8d\	8f#\	8dd\	8ff#\
.	.	.	.	.	8c#/J	.	8e/J	.	.	.	.	.	.	.	.	.	.	8A\J	8e\J	8cc#\J)	8ee\J
!	!	!	!LO:LB:g=original	!	!	!	!	!	!	!	!	!	!	!	!	!	!	!	!	!	!
=9	=9	=9	=9	=9	=9	=9	=9	=9	=9	=9	=9	=9	=9	=9	=9	=9	=9	=9	=9	=9	=9
2D\	.	.	2A/	.	2d/	.	2f#/	.	0r	.	0r	.	0r	.	.	0r	.	2d\	2f#\	2dd\	2ff#\
2AA/	.	.	2r	.	8f#/L	.	8a/L	.	.	.	.	.	.	.	.	.	.	8f#\L	8a\L	8ff#\L	8aa\L
.	.	.	.	.	8e/	.	8g/	.	.	.	.	.	.	.	.	.	.	8e\	8g\	8ee\	8gg\
.	.	.	.	.	8d/	.	8f#/	.	.	.	.	.	.	.	.	.	.	8d\	8f#\	(8dd\	8ff#\
.	.	.	.	.	8c#/J	.	8e/J	.	.	.	.	.	.	.	.	.	.	8A\J	8e\J	8cc#\J)	8ee\J
!LO:LB:g=original	!	!	!	!	!	!	!	!	!	!	!	!	!	!	!	!	!	!	!	!	!
=10	=10	=10	=10	=10	=10	=10	=10	=10	=10	=10	=10	=10	=10	=10	=10	=10	=10	=10	=10	=10	=10
4D\	.	.	4A/	.	4d/	.	4f#/	.	.	.	.	.	.	.	.	.	.	4d\	4f#\	4dd\	4ff#\
4A\	.	.	4A/	.	4d/	.	4e/	.	.	.	.	.	.	.	.	.	.	4A/	4e\	4cc#\	4ee\
!	!	!	!	!	!	!	!	!	!	!	!	!	!	!	!	!	!	!LO:LB:g=original	!	!	!
4AA/	.	.	4A/	.	4c#/	.	4e/	.	.	.	.	.	.	.	.	.	.	4A/	4e\	4cc#\	4ee\
4r	.	.	4r	.	4r	.	4r	.	.	.	.	.	.	.	.	.	.	4r	4r	4r	4r
=11	=11	=11	=11	=11	=11	=11	=11	=11	=11	=11	=11	=11	=11	=11	=11	=11	=11	=11	=11	=11	=11
4D\	.	.	4d\	.	4d/ 4dd	.	4d/ 4a 4ff#	.	1r	.	1r	.	1r	.	.	1r	.	4d\	4f#\	4dd\	4ff#\
4r	.	.	4r	.	4r	.	8r	.	.	.	.	.	.	.	.	.	.	4r	4r	4r	4r
.	.	.	.	.	.	.	16d/LL	.	.	.	.	.	.	.	.	.	.	.	.	.	.
.	.	.	.	.	.	.	16f#/JJ	.	.	.	.	.	.	.	.	.	.	.	.	.	.
!	!	!	!	!	!	!	!	!	!	!	!	!	!	!	!	!	!	!	!LO:LB:g=original	!	!
2r	.	.	2r	.	2r	.	8a\L	.	.	.	.	.	.	.	.	.	.	2r	2r	2r	2r
.	.	.	.	.	.	.	8dd\	.	.	.	.	.	.	.	.	.	.	.	.	.	.
!	!	!	!	!	!	!	!	!LO:DY:b	!	!	!	!	!	!	!	!	!	!	!	!	!
.	.	.	.	.	.	.	8ff#\	p	.	.	.	.	.	.	.	.	.	.	.	.	.
.	.	.	.	.	.	.	8aa\J	.	.	.	.	.	.	.	.	.	.	.	.	.	.
=12	=12	=12	=12	=12	=12	=12	=12	=12	=12	=12	=12	=12	=12	=12	=12	=12	=12	=12	=12	=12	=12
*	*	*	*	*	*tremolo	*	*	*	*	*	*	*	*	*	*	*	*	*	*	*	*
4B\|	.	.	8D/L	.	16d/LL	.	8ddd\	.	4B\	do-	4d\	Do-	4dd\	Do-	.	4dd\	Do-	4D/	4d\	1dd	4dd\
.	.	.	.	.	16d/	.	.	.	.	.	.	.	.	.	.	.	.	.	.	.	.
.	.	.	8D/	.	16d/	.	8r	.	.	.	.	.	.	.	.	.	.	.	.	.	.
.	.	.	.	.	16d/	.	.	.	.	.	.	.	.	.	.	.	.	.	.	.	.
4A\|	.	.	8D/	.	16d/	.	8ccc#\	.	4A\	-ne	4d\	-na	4cc#\	-na	.	4dd\	-na	4D/	4d\	.	4cc#\
.	.	.	.	.	16d/	.	.	.	.	.	.	.	.	.	.	.	.	.	.	.	.
.	.	.	8D/J	.	16d/	.	8r	.	.	.	.	.	.	.	.	.	.	.	.	.	.
.	.	.	.	.	16d/JJ	.	.	.	.	.	.	.	.	.	.	.	.	.	.	.	.
4G\|	.	.	8D/L	.	16d/LL	.	8bb\	.	4G\	no-	4d\	no-	4b\	no-	.	4dd\	no-	4D/	4d\	.	4b\
.	.	.	.	.	16d/	.	.	.	.	.	.	.	.	.	.	.	.	.	.	.	.
.	.	.	8D/	.	16d/	.	8r	.	.	.	.	.	.	.	.	.	.	.	.	.	.
.	.	.	.	.	16d/	.	.	.	.	.	.	.	.	.	.	.	.	.	.	.	.
4F#\|	.	.	8D/	.	16d/	.	8aa\	.	4F#\	-bis	4d\	-bis	4a\	-bis	.	4dd\	-bis	4D/	4d\	.	4a\
.	.	.	.	.	16d/	.	.	.	.	.	.	.	.	.	.	.	.	.	.	.	.
.	.	.	8D/J	.	16d/	.	8r	.	.	.	.	.	.	.	.	.	.	.	.	.	.
.	.	.	.	.	16d/JJ	.	.	.	.	.	.	.	.	.	.	.	.	.	.	.	.
!	!	!	!	!	!	!	!	!	!	!	!19,	!	!	!	!	!LO:LB:g=original	!	!	!	!LO:LB:g=original	!
=13	=13	=13	=13	=13	=13	=13	=13	=13	=13	=13	=13	=13	=13	=13	=13	=13	=13	=13	=13	=13	=13
*	*	*	*	*	*	*	*	*	*	*	*	*ij	*	*	*	*	*	*	*	*	*
4G\|	.	.	8D/L	.	16d/LL	.	8bb\	.	4G\	pa-	4d\	Do-	4b\	pa-	.	4dd\	pa-	4D/	4d\	1dd	4b/
.	.	.	.	.	16d/	.	.	.	.	.	.	.	.	.	.	.	.	.	.	.	.
.	.	.	8D/	.	16d/	.	8r	.	.	.	.	.	.	.	.	.	.	.	.	.	.
.	.	.	.	.	16d/	.	.	.	.	.	.	.	.	.	.	.	.	.	.	.	.
4F#\|	.	.	8D/	.	16d/	.	8aa\	.	4F#\	-cem	4d\	-na	4a\	-cem	.	4dd\	-cem	4D/	4d\	.	4a/
.	.	.	.	.	16d/	.	.	.	.	.	.	.	.	.	.	.	.	.	.	.	.
.	.	.	8D/J	.	16d/	.	8r	.	.	.	.	.	.	.	.	.	.	.	.	.	.
.	.	.	.	.	16d/JJ	.	.	.	.	.	.	.	.	.	.	.	.	.	.	.	.
*	*	*	*	*	*	*	*	*	*	*ij	*	*	*	*	*	*	*	*	*	*	*
!	!	!	!	!	!	!	!	!	!	!	!	!	!LO:LB:g=original	!	!	!	!	!	!	!	!
4E\|	.	.	8D/L	.	16d/LL	.	8gg\	.	4E\	do-	4d\	no-	4g\	Do-	.	4dd\	do-	4D/	4d\	.	4g/
.	.	.	.	.	16d/	.	.	.	.	.	.	.	.	.	.	.	.	.	.	.	.
.	.	.	8D/	.	16d/	.	8r	.	.	.	.	.	.	.	.	.	.	.	.	.	.
.	.	.	.	.	16d/	.	.	.	.	.	.	.	.	.	.	.	.	.	.	.	.
4D\|	.	.	8D/	.	16d/	.	8ff#\	.	4D\	-na	4d\	-bis	4f#\	-na	.	4dd\	-na	4D/	4d\	.	4f#/
.	.	.	.	.	16d/	.	.	.	.	.	.	.	.	.	.	.	.	.	.	.	.
.	.	.	8D/J	.	16d/	.	8r	.	.	.	.	.	.	.	.	.	.	.	.	.	.
.	.	.	.	.	16d/JJ	.	.	.	.	.	.	.	.	.	.	.	.	.	.	.	.
*	*	*	*	*	*	*	*	*	*	*	*	*Xij	*	*	*	*	*	*	*	*	*
!	!	!	!	!	!	!	!LO:LB:g=original	!	!LO:LB:g=original	!	!	!	!	!	!	!	!	!	!	!	!
=14	=14	=14	=14	=14	=14	=14	=14	=14	=14	=14	=14	=14	=14	=14	=14	=14	=14	=14	=14	=14	=14
.	.	.	.	.	.	.	8qgg/	.	.	.	.	.	.	.	.	.	.	.	.	.	.
8D\L	.	.	8d\L	.	16b\LL	.	8gg\L	.	4D\	no-	4B\	no-	4d\	no-	.	4gg\	no-	2r	2r	1g	2b\
.	.	.	.	.	16b\	.	.	.	.	.	.	.	.	.	.	.	.	.	.	.	.
8D\	.	.	8d\	.	16b\	.	16ff#\L	.	.	.	.	.	.	.	.	.	.	.	.	.	.
.	.	.	.	.	16b\	.	16gg\JJ	.	.	.	.	.	.	.	.	.	.	.	.	.	.
.	.	.	.	.	.	.	8qgg/	.	.	.	.	.	.	.	.	.	.	.	.	.	.
8D\	.	.	8d\	.	16b\	.	8gg\L	.	4D\	-bis	4B\	-bis	4d\	-bis	.	4gg\	-bis	.	.	.	.
.	.	.	.	.	16b\	.	.	.	.	.	.	.	.	.	.	.	.	.	.	.	.
8D\J	.	.	8d\J	.	16b\	.	16ff#\L	.	.	.	.	.	.	.	.	.	.	.	.	.	.
.	.	.	.	.	16b\JJ	.	16gg\JJ	.	.	.	.	.	.	.	.	.	.	.	.	.	.
!	!	!	!	!	!	!	!	!	!	!	!	!	!	!	!	!	!	!	!LO:SIC:v:s=d	!	!
.	.	.	.	.	.	.	8qgg/	.	.	.	.	.	.	.	.	.	.	.	.	.	.
8D\L	.	.	8d\L	.	16cc#\LL	.	8gg\L	.	2D\	pa-	2c#\	pa-	2e\	pa-	.	2gg\	pa-	2A/	2f#\	.	2cc#\
.	.	.	.	.	16cc#\	.	.	.	.	.	.	.	.	.	.	.	.	.	.	.	.
8D\	.	.	8d\	.	16cc#\	.	16ff#\L	.	.	.	.	.	.	.	.	.	.	.	.	.	.
.	.	.	.	.	16cc#\	.	16gg\JJ	.	.	.	.	.	.	.	.	.	.	.	.	.	.
.	.	.	.	.	.	.	8qaa/	.	.	.	.	.	.	.	.	.	.	.	.	.	.
8D\	.	.	8d\	.	16cc#\	.	8gg\L	.	.	.	.	.	.	.	.	.	.	.	.	.	.
.	.	.	.	.	16cc#\	.	.	.	.	.	.	.	.	.	.	.	.	.	.	.	.
8D\J	.	.	8d\J	.	16cc#\	.	16ff#\L	.	.	.	.	.	.	.	.	.	.	.	.	.	.
.	.	.	.	.	16cc#\JJ	.	16gg\JJ	.	.	.	.	.	.	.	.	.	.	.	.	.	.
=15	=15	=15	=15	=15	=15	=15	=15	=15	=15	=15	=15	=15	=15	=15	=15	=15	=15	=15	=15	=15	=15
4D\	.	.	4d\	.	4d/ 4dd	.	4d/ 4a 4ff#	.	4D\	-cem	4d\	-cem	4d\	-cem	.	4ff#\	-cem	4d\	4f#\	4f#/	4dd\
*	*	*	*	*	*	*	*	*	*	*Xij	*	*	*	*	*	*	*	*	*	*	*
4r	.	.	4r	.	4r	.	8r	.	4r	.	4r	.	4r	.	.	4r	.	4r	4r	4r	4r
.	.	.	.	.	.	.	16d/LL	.	.	.	.	.	.	.	.	.	.	.	.	.	.
.	.	.	.	.	.	.	16f#/JJ	.	.	.	.	.	.	.	.	.	.	.	.	.	.
2r	.	.	2r	.	2r	.	8a\L	.	2r	.	2r	.	2r	.	.	2r	.	2r	2r	2r	2r
.	.	.	.	.	.	.	8dd\	.	.	.	.	.	.	.	.	.	.	.	.	.	.
.	.	.	.	.	.	.	8ff#\	.	.	.	.	.	.	.	.	.	.	.	.	.	.
.	.	.	.	.	.	.	8aa\J	.	.	.	.	.	.	.	.	.	.	.	.	.	.
!LO:PB:g=original	!	!	!	!	!LO:LB:g=original	!	!	!	!	!	!LO:PB:g=original	!	!	!	!	!	!	!	!	!	!
=16	=16	=16	=16	=16	=16	=16	=16	=16	=16	=16	=16	=16	=16	=16	=16	=16	=16	=16	=16	=16	=16
!	!	!	!	!LO:DY:b	!	!	!	!	!	!	!	!	!	!	!	!	!	!	!	!	!
4B\|	.	.	8d\L	p	16d/ 16ddLL	.	8ddd\	.	4B\	do-	4d\	Do-	4dd\	Do-	.	4dd\	Do-	4D/	4d\	1dd	4dd\
.	.	.	.	.	16d/ 16dd	.	.	.	.	.	.	.	.	.	.	.	.	.	.	.	.
.	.	.	8d\	.	16d/ 16dd	.	8r	.	.	.	.	.	.	.	.	.	.	.	.	.	.
.	.	.	.	.	16d/ 16dd	.	.	.	.	.	.	.	.	.	.	.	.	.	.	.	.
4A\|	.	.	8d\	.	16d/ 16dd	.	8ccc#\	.	4A\	-na	4d\	-na	4cc#\	-na	.	4dd\	-na	4D/	4d\	.	4cc#\
.	.	.	.	.	16d/ 16dd	.	.	.	.	.	.	.	.	.	.	.	.	.	.	.	.
.	.	.	8d\J	.	16d/ 16dd	.	8r	.	.	.	.	.	.	.	.	.	.	.	.	.	.
.	.	.	.	.	16d/ 16ddJJ	.	.	.	.	.	.	.	.	.	.	.	.	.	.	.	.
4G\|	.	.	8d\L	.	16d/ 16ddLL	.	8bb\	.	4G\	no-	4d\	no-	4b\	no-	.	4dd\	no-	4D/	4d\	.	4b\
.	.	.	.	.	16d/ 16dd	.	.	.	.	.	.	.	.	.	.	.	.	.	.	.	.
.	.	.	8d\	.	16d/ 16dd	.	8r	.	.	.	.	.	.	.	.	.	.	.	.	.	.
.	.	.	.	.	16d/ 16dd	.	.	.	.	.	.	.	.	.	.	.	.	.	.	.	.
4F#\|	.	.	8d\	.	16d/ 16dd	.	8aa\	.	4F#\	-bis	4d\	-bis	4a\	-bis	.	4dd\	-bis	4D/	4d\	.	4a\
.	.	.	.	.	16d/ 16dd	.	.	.	.	.	.	.	.	.	.	.	.	.	.	.	.
.	.	.	8d\J	.	16d/ 16dd	.	8r	.	.	.	.	.	.	.	.	.	.	.	.	.	.
.	.	.	.	.	16d/ 16ddJJ	.	.	.	.	.	.	.	.	.	.	.	.	.	.	.	.
=17	=17	=17	=17	=17	=17	=17	=17	=17	=17	=17	=17	=17	=17	=17	=17	=17	=17	=17	=17	=17	=17
*	*	*	*	*	*	*	*	*	*	*ij	*	*ij	*	*ij	*	*	*ij	*	*	*	*
4G\|	.	.	8d\L	.	16d/ 16ddLL	.	8bb\	.	4G\	do-	4d\	Do-	4b\	Do-	.	4dd\	Do-	4D/	4d\	1dd	4b/
.	.	.	.	.	16d/ 16dd	.	.	.	.	.	.	.	.	.	.	.	.	.	.	.	.
.	.	.	8d\	.	16d/ 16dd	.	8r	.	.	.	.	.	.	.	.	.	.	.	.	.	.
.	.	.	.	.	16d/ 16dd	.	.	.	.	.	.	.	.	.	.	.	.	.	.	.	.
4F#\|	.	.	8d\	.	16d/ 16dd	.	8aa\	.	4F#\	-na	4d\	-na	4a\	-na	.	4dd\	-na	4D/	4d\	.	4a/
.	.	.	.	.	16d/ 16dd	.	.	.	.	.	.	.	.	.	.	.	.	.	.	.	.
.	.	.	8d\J	.	16d/ 16dd	.	8r	.	.	.	.	.	.	.	.	.	.	.	.	.	.
.	.	.	.	.	16d/ 16ddJJ	.	.	.	.	.	.	.	.	.	.	.	.	.	.	.	.
4E\|	.	.	8d\L	.	16d/ 16ddLL	.	8gg\	.	4E\	no-	4d\	no-	4g\	no-	.	4dd\	no-	4D/	4d\	.	4g/
.	.	.	.	.	16d/ 16dd	.	.	.	.	.	.	.	.	.	.	.	.	.	.	.	.
.	.	.	8d\	.	16d/ 16dd	.	8r	.	.	.	.	.	.	.	.	.	.	.	.	.	.
.	.	.	.	.	16d/ 16dd	.	.	.	.	.	.	.	.	.	.	.	.	.	.	.	.
4D\|	.	.	8d\	.	16d/ 16dd	.	8ff#\	.	4D\	-bis	4d\	-bis	4f#\	-bis	.	4dd\	-bis	4D/	4d\	.	4f#/
.	.	.	.	.	16d/ 16dd	.	.	.	.	.	.	.	.	.	.	.	.	.	.	.	.
.	.	.	8d\J	.	16d/ 16dd	.	8r	.	.	.	.	.	.	.	.	.	.	.	.	.	.
.	.	.	.	.	16d/ 16ddJJ	.	.	.	.	.	.	.	.	.	.	.	.	.	.	.	.
*	*	*	*	*	*	*	*	*	*	*Xij	*	*Xij	*	*Xij	*	*	*Xij	*	*	*	*
!	!	!	!	!	!	!	!	!	!	!	!	!	!	!	!	!	!	!	!	!	!LO:LB:g=original
=18	=18	=18	=18	=18	=18	=18	=18	=18	=18	=18	=18	=18	=18	=18	=18	=18	=18	=18	=18	=18	=18
!	!	!	!	!LO:DY:b	!	!	!	!LO:DY:b	!	!	!	!	!	!	!	!	!	!	!	!	!
.	.	.	.	.	16qqff#/	.	16qqddd/	f	.	.	.	.	.	.	.	.	.	.	.	.	.
8D\L	.	.	8d\L	f	8ee\L	.	8ccc#\L	.	1D	pa-	2d\	pa-	1e	pa-	.	1cc#	pa-	2A/	2e\	1e	1cc#
8D\	.	.	8d\	.	16dd\L	.	16bb\L	.	.	.	.	.	.	.	.	.	.	.	.	.	.
.	.	.	.	.	16ee\JJ	.	16ccc#\JJ	.	.	.	.	.	.	.	.	.	.	.	.	.	.
.	.	.	.	.	16qqff#/	.	16qqddd/	.	.	.	.	.	.	.	.	.	.	.	.	.	.
8D\	.	.	8d\	.	8ee\L	.	8ccc#\L	.	.	.	.	.	.	.	.	.	.	.	.	.	.
8D\J	.	.	8d\J	.	16dd\L	.	16bb\L	.	.	.	.	.	.	.	.	.	.	.	.	.	.
.	.	.	.	.	16ee\JJ	.	16ccc#\JJ	.	.	.	.	.	.	.	.	.	.	.	.	.	.
.	.	.	.	.	16qqff#/	.	16qqddd/	.	.	.	.	.	.	.	.	.	.	.	.	.	.
8D\L	.	.	8g\L	.	8ee\L	.	8ccc#\L	.	.	.	2G/	.	.	.	.	.	.	4A/	4e\	.	.
8D\	.	.	8g\	.	16dd\L	.	16bb\L	.	.	.	.	.	.	.	.	.	.	.	.	.	.
.	.	.	.	.	16ee\JJ	.	16ccc#\JJ	.	.	.	.	.	.	.	.	.	.	.	.	.	.
.	.	.	.	.	16qqff#/	.	16qqddd/	.	.	.	.	.	.	.	.	.	.	.	.	.	.
8D\	.	.	8g\	.	8ee\L	.	8ccc#\L	.	.	.	.	.	.	.	.	.	.	4A/	4e\	.	.
8D\J	.	.	8g\J	.	16dd\L	.	16bb\L	.	.	.	.	.	.	.	.	.	.	.	.	.	.
.	.	.	.	.	16ee\JJ	.	16ccc#\JJ	.	.	.	.	.	.	.	.	.	.	.	.	.	.
*	*	*	*Xtremolo	*	*	*	*	*	*	*	*	*	*	*	*	*	*	*	*	*	*
!	!	!	!LO:LB:g=original	!	!	!	!	!	!	!	!	!	!	!	!	!	!	!	!	!	!
=19	=19	=19	=19	=19	=19	=19	=19	=19	=19	=19	=19	=19	=19	=19	=19	=19	=19	=19	=19	=19	=19
!	!	!	!	!	!	!	!	!	!	!	!	!	!	!	!LO:DY:a	!	!	!	!	!	!
4D\	.	.	4f#\	.	4d/ 4a 4ff#	.	8ddd\L	.	4D\	-cem	4F#/	-cem	4f#\	-cem	f	4dd\	-cem	4d\	4f#\	4f#/	4dd\
.	.	.	.	.	.	.	16aa\L	.	.	.	.	.	.	.	.	.	.	.	.	.	.
.	.	.	.	.	.	.	16bb\JJ	.	.	.	.	.	.	.	.	.	.	.	.	.	.
4DD/	.	.	4d\	.	4d/ 4a 4ff#	.	8aa\L	.	4r	.	4r	.	4r	.	.	4r	.	4d\	4f#\	4f#/	4dd\
.	.	.	.	.	.	.	8aa\J	.	.	.	.	.	.	.	.	.	.	.	.	.	.
!	!	!	!	!	!	!	!LO:LB:g=original	!	!	!	!	!	!	!	!	!	!	!	!	!	!
!	!	!	!	!	!	!	!LO:TX:t=P:problem:mixed beam	!	!	!	!	!	!	!	!	!LO:LB:g=original	!	!LO:LB:g=original	!	!	!
8r	.	.	8r	.	8r	.	8aa\L	.	8r	.	8r	.	8r	.	.	8r	.	2r	2r	8r	8r
8A\L	.	.	8A/L	.	8cc#\L	.	8a/J	.	8A\L	do-	4A\	do-	4a\	do-	.	8cc#\L	Do-	.	.	8cc#\L	4aa\
8B\	.	.	8B/	.	8dd\	.	16aa\LL	.	8B\J	.	.	.	.	.	.	8dd\J	.	.	.	8dd\	.
.	.	.	.	.	.	.	16gg\	.	.	.	.	.	.	.	.	.	.	.	.	.	.
8c#\J	.	.	8c#/J	.	8ee\J	.	16ff#\	.	8c#\	-na	8A\	-na	8g\	-na	.	8ee\	-na	.	.	8ee\J	8gg\
.	.	.	.	.	.	.	16gg\JJ	.	.	.	.	.	.	.	.	.	.	.	.	.	.
!	!	!	!	!	!	!	!	!	!	!	!	!	!LO:LB:g=original	!	!	!	!	!	!	!	!
=20	=20	=20	=20	=20	=20	=20	=20	=20	=20	=20	=20	=20	=20	=20	=20	=20	=20	=20	=20	=20	=20
4d\	.	.	4d\	.	4d/ 4a 4ff#	.	8ff#\L	.	4d\	no-	4A\	no-	4f#\	no-	.	4ff#\	no-	4d\	4f#\	4f#/	4ff#\
.	.	.	.	.	.	.	16ccc#\L	.	.	.	.	.	.	.	.	.	.	.	.	.	.
.	.	.	.	.	.	.	16ddd\JJ	.	.	.	.	.	.	.	.	.	.	.	.	.	.
4D/	.	.	4d\	.	4d/ 4a 4ff#	.	8aa\L	.	4D\	-bis	4A\	-bis	8a\	-bis	.	4ff#\	-bis	4d\	4f#\	4f#/	4ff#\
.	.	.	.	.	.	.	8aa\J	.	.	.	.	.	8r	.	.	.	.	.	.	.	.
!	!	!	!	!	!	!	!LO:TX:t=P:problem:mixed beam	!	!LO:LB:g=original	!	!	!	!	!	!	!	!	!	!	!	!
8r	.	.	8r	.	8r	.	8aa\L	.	8r	.	8r	.	8r	.	.	8r	.	2r	2r	8r	8r
8A\L	.	.	8A/L	.	8cc#\L	.	8a/J	.	8A\L	pa-	4A\	pa-	4a\	pa-	.	8cc#\L	pa-	.	.	8cc#\L	4aa\
8B\	.	.	8A/	.	8dd\	.	16aa\LL	.	8B\	.	.	.	.	.	.	8dd\	.	.	.	8dd\	.
.	.	.	.	.	.	.	16gg\	.	.	.	.	.	.	.	.	.	.	.	.	.	.
8c#\J	.	.	8A/J	.	8ee\J	.	16ff#\	.	8c#\J	.	8A\	.	8g\	.	.	8ee\J	.	.	.	8ee\J	8gg\
.	.	.	.	.	.	.	16gg\JJ	.	.	.	.	.	.	.	.	.	.	.	.	.	.
!	!	!	!	!	!	!	!	!	!	!	!	!	!	!	!	!	!	!	!LO:LB:g=original	!	!
=21	=21	=21	=21	=21	=21	=21	=21	=21	=21	=21	=21	=21	=21	=21	=21	=21	=21	=21	=21	=21	=21
*Xtremolo	*	*	*	*	*	*	*tremolo	*	*	*	*	*	*	*	*	*	*	*	*	*	*
8d\L	.	.	4A/	.	16a/LL	.	16ff#\LL	.	4d\	cem	4A\	-cem	4f#\	-cem	.	4ff#\	-cem	4d\	4f#\	2.dd\	2ff#\
.	.	.	.	.	16a/	.	16ff#\	.	.	.	.	.	.	.	.	.	.	.	.	.	.
8d\	.	.	.	.	16a/	.	16ff#\	.	.	.	.	.	.	.	.	.	.	.	.	.	.
.	.	.	.	.	16a/JJ	.	16ff#\JJ	.	.	.	.	.	.	.	.	.	.	.	.	.	.
!	!	!	!	!	!	!	!	!	!	!	!LO:LB:g=original	!	!	!	!	!	!	!	!	!	!
8B\	.	.	8d\L	.	16ff#\LL	.	16ddd\LL	.	8B\	do-	8d\	do-	8dd\	do-	.	8ff#\	do-	4r	4r	.	.
.	.	.	.	.	16ff#\	.	16ddd\	.	.	.	.	.	.	.	.	.	.	.	.	.	.
8B\J	.	.	8d\J	.	16ff#\	.	16ddd\	.	8B\	-na	8d\	-na	8dd\	-na	.	8ff#\	-na	.	.	.	.
.	.	.	.	.	16ff#\JJ	.	16ddd\	.	.	.	.	.	.	.	.	.	.	.	.	.	.
8G#X\L	.	.	8B\L	.	16ee\LL	.	16ddd\	.	4G#X\	no-	4B\	no-	4dd\	nob-	.	4ee\	no-	2r	2r	.	2ee\
.	.	.	.	.	16ee\	.	16ddd\	.	.	.	.	.	.	.	.	.	.	.	.	.	.
8G#\	.	.	8B\	.	16ee\	.	16ddd\	.	.	.	.	.	.	.	.	.	.	.	.	.	.
.	.	.	.	.	16ee\	.	16ddd\JJ	.	.	.	.	.	.	.	.	.	.	.	.	.	.
8A\	.	.	8c#\	.	16ee\	.	16ccc#\LL	.	4A\	-bis	4c#\	-bis	4cc#\	-is	.	4ee\	-bis	.	.	4cc#\	.
.	.	.	.	.	16ee\	.	16ccc#\	.	.	.	.	.	.	.	.	.	.	.	.	.	.
8A\J	.	.	8c#\J	.	16ee\	.	16ccc#\	.	.	.	.	.	.	.	.	.	.	.	.	.	.
.	.	.	.	.	16ee\JJ	.	16ccc#\JJ	.	.	.	.	.	.	.	.	.	.	.	.	.	.
!LO:LB:g=original	!	!	!	!	!	!	!	!	!	!	!	!	!	!	!	!	!	!	!	!	!
=22	=22	=22	=22	=22	=22	=22	=22	=22	=22	=22	=22	=22	=22	=22	=22	=22	=22	=22	=22	=22	=22
8F#\L	.	.	8A/L	.	16dd\LL	.	16ccc#\LL	.	4F#\	pa-	4A\	pa-	4cc#\	pa-	.	2dd\	pa-	1r	1r	4cc#\	2dd\
.	.	.	.	.	16dd\	.	16ccc#\	.	.	.	.	.	.	.	.	.	.	.	.	.	.
8F#\	.	.	8A/	.	16dd\	.	16ccc#\	.	.	.	.	.	.	.	.	.	.	.	.	.	.
.	.	.	.	.	16dd\	.	16ccc#\JJ	.	.	.	.	.	.	.	.	.	.	.	.	.	.
8G\	.	.	8B/	.	16dd\	.	16ddd\LL	.	4G\	.	4B\	.	2b\	.	.	.	.	.	.	2b\	.
.	.	.	.	.	16dd\	.	16ddd\	.	.	.	.	.	.	.	.	.	.	.	.	.	.
8G\J	.	.	8B/J	.	16dd\	.	16ddd\	.	.	.	.	.	.	.	.	.	.	.	.	.	.
.	.	.	.	.	16dd\JJ	.	16ddd\	.	.	.	.	.	.	.	.	.	.	.	.	.	.
8E\L	.	.	8g#X\L	.	16cc#\LL	.	16ddd\	.	4E\	.	4G#X/	.	.	.	.	2cc#\	-cem	.	.	.	2cc#\
.	.	.	.	.	16cc#\	.	16ddd\	.	.	.	.	.	.	.	.	.	.	.	.	.	.
8E\	.	.	8g#\	.	16cc#\	.	16ddd\	.	.	.	.	.	.	.	.	.	.	.	.	.	.
.	.	.	.	.	16cc#\	.	16ddd\JJ	.	.	.	.	.	.	.	.	.	.	.	.	.	.
8F#\	.	.	8a\	.	16cc#\	.	16aa\LL	.	4F#\	.	4A/	.	4a\	.	.	.	.	.	.	4a\	.
.	.	.	.	.	16cc#\	.	16aa\	.	.	.	.	.	.	.	.	.	.	.	.	.	.
8F#\J	.	.	8a\J	.	16cc#\	.	16aa\	.	.	.	.	.	.	.	.	.	.	.	.	.	.
.	.	.	.	.	16cc#\JJ	.	16aa\JJ	.	.	.	.	.	.	.	.	.	.	.	.	.	.
=23	=23	=23	=23	=23	=23	=23	=23	=23	=23	=23	=23	=23	=23	=23	=23	=23	=23	=23	=23	=23	=23
*tremolo	*	*	*tremolo	*	*	*	*	*	*	*	*	*	*	*	*	*	*	*	*	*	*
8D#X\L	.	.	8f#\L	.	16b\LL	.	16aa\LL	.	1D#X	.	1B	.	1f#	.	.	1b	pa-	2e\	2f#\	1a	1b
.	.	.	.	.	16b\	.	16aa\	.	.	.	.	.	.	.	.	.	.	.	.	.	.
8D#X\	.	.	8f#\	.	16b\	.	16aa\	.	.	.	.	.	.	.	.	.	.	.	.	.	.
.	.	.	.	.	16b\	.	16aa\	.	.	.	.	.	.	.	.	.	.	.	.	.	.
8D#X\	.	.	8f#\	.	16b\	.	16aa\	.	.	.	.	.	.	.	.	.	.	.	.	.	.
.	.	.	.	.	16b\	.	16aa\	.	.	.	.	.	.	.	.	.	.	.	.	.	.
8D#X\J	.	.	8f#\J	.	16b\	.	16aa\	.	.	.	.	.	.	.	.	.	.	.	.	.	.
.	.	.	.	.	16b\JJ	.	16aa\JJ	.	.	.	.	.	.	.	.	.	.	.	.	.	.
8D#\L	.	.	8f#\L	.	16b\LL	.	16aa\LL	.	.	.	.	.	.	.	.	.	.	2e\	2f#\	.	.
.	.	.	.	.	16b\	.	16aa\	.	.	.	.	.	.	.	.	.	.	.	.	.	.
8D#\	.	.	8f#\	.	16b\	.	16aa\	.	.	.	.	.	.	.	.	.	.	.	.	.	.
.	.	.	.	.	16b\	.	16aa\	.	.	.	.	.	.	.	.	.	.	.	.	.	.
8D#\	.	.	8f#\	.	16b\	.	16aa\	.	.	.	.	.	.	.	.	.	.	.	.	.	.
.	.	.	.	.	16b\	.	16aa\	.	.	.	.	.	.	.	.	.	.	.	.	.	.
8D#\J	.	.	8f#\J	.	16b\	.	16aa\	.	.	.	.	.	.	.	.	.	.	.	.	.	.
.	.	.	.	.	16b\JJ	.	16aa\JJ	.	.	.	.	.	.	.	.	.	.	.	.	.	.
*Xtremolo	*	*	*	*	*Xtremolo	*	*	*	*	*	*	*	*	*	*	*	*	*	*	*	*
!	!	!	!	!	!LO:LB:g=original	!	!	!	!	!	!	!	!	!	!	!	!	!	!	!	!
=24	=24	=24	=24	=24	=24	=24	=24	=24	=24	=24	=24	=24	=24	=24	=24	=24	=24	=24	=24	=24	=24
4E\	.	.	4e\	.	4b\	.	4gg#X\	.	4E\	-cem	4A\	-cem	4g#X\	-cem	.	4b\	-cem	4e\	4e\	4g#X/	4b\
4r	.	.	4r	.	4r	.	4r	.	4r	.	4r	.	4r	.	.	4r	.	4r	4r	4r	4r
!	!	!	!	!	!	!	!	!LO:DY:b	!	!	!	!	!	!	!	!	!	!	!	!	!
2r	.	.	2r	.	2r	.	2r	p	2r	.	2r	.	2r	.	.	2r	.	2r	2r	2r	2r
=25	=25	=25	=25	=25	=25	=25	=25	=25	=25	=25	=25	=25	=25	=25	=25	=25	=25	=25	=25	=25	=25
*	*	*	*	*	*	*	*Xtremolo	*	*	*	*	*	*	*	*	*	*	*	*	*	*
1r	.	.	4e\	.	8g#X/L	.	8b\L	.	0r	.	0r	.	0r	.	.	0r	.	00r	00r	1r	1r
.	.	.	.	.	8e/	.	8ee\	.	.	.	.	.	.	.	.	.	.	.	.	.	.
.	.	.	4r	.	8g#/	.	8b\	.	.	.	.	.	.	.	.	.	.	.	.	.	.
.	.	.	.	.	8e/J	.	8ee\J	.	.	.	.	.	.	.	.	.	.	.	.	.	.
.	.	.	2r	.	8a/L	.	8cc#\L	.	.	.	.	.	.	.	.	.	.	.	.	.	.
.	.	.	.	.	8e/	.	8ee\	.	.	.	.	.	.	.	.	.	.	.	.	.	.
.	.	.	.	.	8a/	.	8cc#\	.	.	.	.	.	.	.	.	.	.	.	.	.	.
.	.	.	.	.	8e/J	.	8ee\J	.	.	.	.	.	.	.	.	.	.	.	.	.	.
!	!	!	!LO:PB:g=original	!	!	!	!	!	!	!	!	!	!	!	!	!	!	!	!	!	!
=26	=26	=26	=26	=26	=26	=26	=26	=26	=26	=26	=26	=26	=26	=26	=26	=26	=26	=26	=26	=26	=26
8G#X\L|	.	.	4e\	.	8b/L	.	8dd\L	.	.	.	.	.	.	.	.	.	.	.	.	2b/	2dd\
8E\|	.	.	.	.	8r	.	8ee\	.	.	.	.	.	.	.	.	.	.	.	.	.	.
8G#\|	.	.	4r	.	8b/	.	8dd\	.	.	.	.	.	.	.	.	.	.	.	.	.	.
8E\J|	.	.	.	.	8r	.	8ee\J	.	.	.	.	.	.	.	.	.	.	.	.	.	.
!LO:TX:t=P:problem:mixed beam	!	!	!	!	!	!	!	!	!	!	!	!	!	!	!	!	!	!	!	!	!
8A\L|	.	.	2r	.	8a/	.	8cc#\L	.	.	.	.	.	.	.	.	.	.	.	.	2a/	2cc#\
8E\|	.	.	.	.	8r	.	8ee\	.	.	.	.	.	.	.	.	.	.	.	.	.	.
8A\|	.	.	.	.	8a/J	.	8cc#\	.	.	.	.	.	.	.	.	.	.	.	.	.	.
8AA/J|	.	.	.	.	8r	.	8ee\J	.	.	.	.	.	.	.	.	.	.	.	.	.	.
!	!	!	!	!	!	!	!	!	!	!	!	!	!	!	!	!	!	!	!	!LO:LB:g=original	!
=27	=27	=27	=27	=27	=27	=27	=27	=27	=27	=27	=27	=27	=27	=27	=27	=27	=27	=27	=27	=27	=27
!	!	!	!	!	!LO:SIC:v:s=g#	!	!	!	!	!	!	!	!	!	!	!	!	!	!	!	!
4E\	.	.	4e\	.	8g/	.	8b\	.	2E\	do-	2e\	do-	2g#X\	Do-	.	2b\	Do-	.	.	4g#X/	4b\
.	.	.	.	.	8r	.	4ee\	.	.	.	.	.	.	.	.	.	.	.	.	.	.
4r	.	.	4r	.	4r	.	.	.	.	.	.	.	.	.	.	.	.	.	.	4r	4r
.	.	.	.	.	.	.	4gg#X\	.	.	.	.	.	.	.	.	.	.	.	.	.	.
2r	.	.	2r	.	2r	.	.	.	2E\	-na	2e\	-na	2g#\	-na	.	2b\	-na	.	.	2r	2r
!	!	!	!	!	!	!	!LO:LB:g=original	!	!	!	!	!	!	!	!	!	!	!	!	!	!
.	.	.	.	.	.	.	4bb\	.	.	.	.	.	.	.	.	.	.	.	.	.	.
.	.	.	.	.	.	.	8gg#X\	.	.	.	.	.	.	.	.	.	.	.	.	.	.
!	!	!	!	!	!	!	!	!	!	!	!	!	!LO:LB:g=original	!	!	!	!	!	!	!	!
=28	=28	=28	=28	=28	=28	=28	=28	=28	=28	=28	=28	=28	=28	=28	=28	=28	=28	=28	=28	=28	=28
!	!	!	!	!	!	!	!LO:SIC:v:s=gg#	!	!	!	!	!	!LO:SIC:v:s=g#	!	!	!	!	!	!	!	!
0r	.	.	1r	.	4b\	.	8gg\	.	2E\	no-	2e\	no-	2g\	no-	.	2b\	no-	.	.	0r	0r
.	.	.	.	.	.	.	4ee\	.	.	.	.	.	.	.	.	.	.	.	.	.	.
.	.	.	.	.	4r	.	.	.	.	.	.	.	.	.	.	.	.	.	.	.	.
.	.	.	.	.	.	.	4b\	.	.	.	.	.	.	.	.	.	.	.	.	.	.
!	!	!	!	!	!	!	!	!	!	!	!	!	!LO:SIC:v:s=g#	!	!	!	!	!	!	!	!
.	.	.	.	.	2r	.	.	.	2E\	-bis	2e\	-bis	2g\	-bis	.	2b\	-bis	.	.	.	.
.	.	.	.	.	.	.	4g#X/	.	.	.	.	.	.	.	.	.	.	.	.	.	.
!	!	!	!	!	!	!	!	!LO:DY:b	!	!	!	!	!	!	!	!	!	!	!	!	!
.	.	.	.	.	.	.	8b/	p	.	.	.	.	.	.	.	.	.	.	.	.	.
!	!	!	!	!	!	!	!	!	!LO:LB:g=original	!	!LO:LB:g=original	!	!	!	!	!	!	!	!	!	!
=29	=29	=29	=29	=29	=29	=29	=29	=29	=29	=29	=29	=29	=29	=29	=29	=29	=29	=29	=29	=29	=29
!	!	!	!	!	!LO:SIC:v:s=g#	!	!	!	!	!	!	!	!	!	!	!	!	!	!	!	!
.	.	.	4e\	.	8g/L	.	8b\L	.	0r	.	0r	.	0r	.	.	0r	.	00r	00r	.	.
.	.	.	.	.	8e/	.	8ee\	.	.	.	.	.	.	.	.	.	.	.	.	.	.
!	!	!	!	!	!LO:SIC:v:s=g#	!	!	!	!	!	!	!	!	!	!	!	!	!	!	!	!
.	.	.	4r	.	8g/	.	8b\	.	.	.	.	.	.	.	.	.	.	.	.	.	.
.	.	.	.	.	8e/J	.	8ee\J	.	.	.	.	.	.	.	.	.	.	.	.	.	.
.	.	.	2r	.	8a/L	.	8cc#\L	.	.	.	.	.	.	.	.	.	.	.	.	.	.
.	.	.	.	.	8e/	.	8ee\	.	.	.	.	.	.	.	.	.	.	.	.	.	.
!	!	!	!	!	!LO:SIC:v:s=g#	!	!	!	!	!	!	!	!	!	!	!	!	!	!	!	!
.	.	.	.	.	8g/	.	8cc#\	.	.	.	.	.	.	.	.	.	.	.	.	.	.
.	.	.	.	.	8e/J	.	8ee\J	.	.	.	.	.	.	.	.	.	.	.	.	.	.
=30	=30	=30	=30	=30	=30	=30	=30	=30	=30	=30	=30	=30	=30	=30	=30	=30	=30	=30	=30	=30	=30
8G#X\L|	.	.	4e\	.	8b/L	.	8dd\L	.	.	.	.	.	.	.	.	.	.	.	.	2b/	2dd\
8E\|	.	.	.	.	8r	.	8ee\	.	.	.	.	.	.	.	.	.	.	.	.	.	.
8G#\|	.	.	4r	.	8b/	.	8dd\	.	.	.	.	.	.	.	.	.	.	.	.	.	.
8E\J|	.	.	.	.	8r	.	8ee\J	.	.	.	.	.	.	.	.	.	.	.	.	.	.
!LO:TX:t=P:problem:mixed beam	!	!	!	!	!	!	!	!	!	!	!	!	!	!	!	!	!	!	!	!	!
8A\L|	.	.	2r	.	8a/	.	8cc#\L	.	.	.	.	.	.	.	.	.	.	.	.	2a/	2cc#\
8E\|	.	.	.	.	8r	.	8ee\	.	.	.	.	.	.	.	.	.	.	.	.	.	.
8A\|	.	.	.	.	8a/J	.	8cc#\	.	.	.	.	.	.	.	.	.	.	.	.	.	.
8AA/J|	.	.	.	.	8r	.	8ee\J	.	.	.	.	.	.	.	.	.	.	.	.	.	.
!LO:LB:g=original	!	!	!	!	!	!	!	!	!	!	!	!	!	!	!	!	!	!	!	!	!
=31	=31	=31	=31	=31	=31	=31	=31	=31	=31	=31	=31	=31	=31	=31	=31	=31	=31	=31	=31	=31	=31
!	!	!	!	!LO:DY:b	!	!	!	!	!	!	!	!	!	!	!	!	!	!	!	!	!
1D#X	.	.	2F#/	pp	8a/	.	8ccn\	.	1D#X	pa-	1A#X	pa-	1f#	pa-	.	1ccn	pa-	.	.	0r	0r
.	.	.	.	.	4a/	.	4cc\	.	.	.	.	.	.	.	.	.	.	.	.	.	.
.	.	.	.	.	8a/	.	8cc\	.	.	.	.	.	.	.	.	.	.	.	.	.	.
!	!	!	!	!	!LO:TX:t=P:problem:zbędna kreska taktowa przed nutą	!	!	!	!	!	!	!	!	!	!	!	!	!	!	!	!
.	.	.	.	.	8qqb/	.	.	.	.	.	.	.	.	.	.	.	.	.	.	.	.
.	.	.	2F#/	.	4a/	.	4cc\	.	.	.	.	.	.	.	.	.	.	.	.	.	.
.	.	.	.	.	8g#X/L	.	8b\L	.	.	.	.	.	.	.	.	.	.	.	.	.	.
.	.	.	.	.	8f#/J	.	8a\J	.	.	.	.	.	.	.	.	.	.	.	.	.	.
!	!	!	!	!	!LO:LB:g=original	!	!	!	!	!	!	!	!	!	!	!	!	!	!	!	!
=32	=32	=32	=32	=32	=32	=32	=32	=32	=32	=32	=32	=32	=32	=32	=32	=32	=32	=32	=32	=32	=32
4E\	.	.	4G#X/	.	4e/	.	4g#X/	.	4E\	-cem	4G#X/	-cem	4g#X\	-cem	.	4b\	-cem	.	.	.	.
4r	.	.	4r	.	8.g#X/L	.	8.bT/L	.	4r	.	4r	.	4r	.	.	4r	.	.	.	.	.
.	.	.	.	.	32f#/LL	.	32a/LL	.	.	.	.	.	.	.	.	.	.	.	.	.	.
.	.	.	.	.	32g#/JJJ	.	32b/JJJ	.	.	.	.	.	.	.	.	.	.	.	.	.	.
4E\	.	.	2r	.	4g#/	.	4ee\	.	2r	.	2r	.	2r	.	.	2r	.	.	.	.	.
4r	.	.	.	.	4b/	.	4dd\	.	.	.	.	.	.	.	.	.	.	.	.	.	.
=33	=33	=33	=33	=33	=33	=33	=33	=33	=33	=33	=33	=33	=33	=33	=33	=33	=33	=33	=33	=33	=33
*	*	*	*	*	*	*	*	*	*	*ij	*	*ij	*	*ij	*	*	*ij	*	*	*	*
!	!	!	!	!	!	!	!	!	!	!	!	!	!	!	!	!LO:SIC:v:s=ccn	!	!	!	!	!
4A\	.	.	2F#/	.	8a\	.	8ccn\	.	4A\	pa-	1A	pa-	4e\	no-	.	1cc#	pa-	1r	1r	1r	1r
.	.	.	.	.	4a\	.	4cc\	.	.	.	.	.	.	.	.	.	.	.	.	.	.
4D#X\	.	.	.	.	.	.	.	.	4D#X\	.	.	.	4f#\	-bis	.	.	.	.	.	.	.
.	.	.	.	.	8a\	.	8cc\	.	.	.	.	.	.	.	.	.	.	.	.	.	.
2D#\	.	.	2F#/	.	8a\L	.	8cc\L	.	2D#\	.	.	.	2g\	pa-	.	.	.	.	.	.	.
.	.	.	.	.	16cc#\L	.	16aa\L	.	.	.	.	.	.	.	.	.	.	.	.	.	.
.	.	.	.	.	16dd\JJ	.	16bb\JJ	.	.	.	.	.	.	.	.	.	.	.	.	.	.
.	.	.	.	.	8cc#\L	.	8aa\L	.	.	.	.	.	.	.	.	.	.	.	.	.	.
.	.	.	.	.	8a\J	.	8cc\J	.	.	.	.	.	.	.	.	.	.	.	.	.	.
=34	=34	=34	=34	=34	=34	=34	=34	=34	=34	=34	=34	=34	=34	=34	=34	=34	=34	=34	=34	=34	=34
4E\	.	.	4G#X/	.	2g#X/	.	4b\	.	4E\	-cem	4G/	-cem	4g#X\	-cem	.	4b\	-cem	1e	1e	2g#X/	2dd\
4r	.	.	4r	.	.	.	4ee\	.	4r	.	4r	.	4r	.	.	4r	.	.	.	.	.
2r	.	.	2r	.	4a/	.	4ccn\	.	2r	.	2r	.	2r	.	.	2r	.	.	.	2a/	2ccn\
.	.	.	.	.	4f#/	.	4a\	.	.	.	.	.	.	.	.	.	.	.	.	.	.
*	*	*	*	*	*	*	*	*	*	*Xij	*	*Xij	*	*Xij	*	*	*Xij	*	*	*	*
!	!	!	!LO:LB:g=original	!	!	!	!LO:LB:g=original	!	!	!	!	!	!	!	!	!	!	!	!	!	!LO:LB:g=original
=35	=35	=35	=35	=35	=35	=35	=35	=35	=35	=35	=35	=35	=35	=35	=35	=35	=35	=35	=35	=35	=35
!	!	!	!	!	!	!	!	!	!	!	!	!	!	!	!	!	!	!	!	!LO:SIC:v:s=g#	!
4E\	.	.	4E/	.	4e/	.	8g#X/L	.	00r	.	00r	.	00r	.	.	00r	.	1e	1e	2g/	2b\
.	.	.	.	.	.	.	8e/J	.	.	.	.	.	.	.	.	.	.	.	.	.	.
4r	.	.	4r	.	4g#X/	.	4ee\	.	.	.	.	.	.	.	.	.	.	.	.	.	.
!	!	!	!	!	!	!	!	!	!	!	!	!	!	!	!	!	!	!	!	!	!LO:SIC:v:s=ccn
2r	.	.	2r	.	4a/	.	8dd\L	.	.	.	.	.	.	.	.	.	.	.	.	2a/	2cc#\
.	.	.	.	.	.	.	8ccn\J	.	.	.	.	.	.	.	.	.	.	.	.	.	.
.	.	.	.	.	.	.	8qqb/	.	.	.	.	.	.	.	.	.	.	.	.	.	.
.	.	.	.	.	4f#/	.	4a/	.	.	.	.	.	.	.	.	.	.	.	.	.	.
=36	=36	=36	=36	=36	=36	=36	=36	=36	=36	=36	=36	=36	=36	=36	=36	=36	=36	=36	=36	=36	=36
!	!	!LO:DY:b	!	!	!LO:SIC:v:s=g#	!	!	!	!	!	!	!	!	!	!	!	!	!	!	!LO:SIC:v:s=g#	!
1E	.	pp	1E	.	2g/	.	(2b\	.	.	.	.	.	.	.	.	.	.	1e	1e	2g/	2b\
!	!	!	!	!	!	!	!	!	!	!	!	!	!	!	!	!	!	!	!	!	!LO:SIC:v:s=ccn
.	.	.	.	.	2a/	.	2ccn\	.	.	.	.	.	.	.	.	.	.	.	.	2a/	2cc#\
=37	=37	=37	=37	=37	=37	=37	=37	=37	=37	=37	=37	=37	=37	=37	=37	=37	=37	=37	=37	=37	=37
!	!	!	!	!	!LO:SIC:v:s=g#	!	!	!	!	!	!	!	!	!	!	!	!	!	!	!LO:SIC:v:s=g#	!
1E	.	.	2B/	.	2g/	.	2b\	.	.	.	.	.	.	.	.	.	.	1e	1e	2g/	2b\
.	.	.	2d#X\	.	2f#/	.	2a\)	.	.	.	.	.	.	.	.	.	.	.	.	2f#/	2a\
=38	=38	=38	=38	=38	=38	=38	=38	=38	=38	=38	=38	=38	=38	=38	=38	=38	=38	=38	=38	=38	=38
4E\	.	.	4e\	.	4e/	.	(4g#X/	.	.	.	.	.	.	.	.	.	.	4e\	4e\	4e/	4g#X/
4D#X\	.	.	4B/	.	4f#/	.	4a/	.	.	.	.	.	.	.	.	.	.	4r	4r	4f#/	4a/
4E\	.	.	4B/	.	4e/	.	4g#/	.	.	.	.	.	.	.	.	.	.	4e\	4e\	4e/	4g#/
4D#\	.	.	4B/	.	4f#/	.	4a/)	.	.	.	.	.	.	.	.	.	.	4r	4r	4f#/	4a/
=39	=39	=39	=39	=39	=39	=39	=39	=39	=39	=39	=39	=39	=39	=39	=39	=39	=39	=39	=39	=39	=39
!	!	!	!	!	!	!	!LO:SIC:v:s=g#	!	!	!	!	!	!	!	!	!	!	!	!	!	!LO:SIC:v:s=g#
4E\	.	.	4B/	.	4e/	.	4g/|	.	1r	.	1r	.	1r	.	.	1r	.	4e\	4e\	4e/	4g/
!	!	!	!	!	!	!	!LO:SIC:v:s=g#	!	!	!	!	!	!	!	!	!	!	!	!	!	!LO:SIC:v:s=g#
4E\	.	.	4B/	.	4e/	.	4g/|	.	.	.	.	.	.	.	.	.	.	4e\	4e\	4e/	4g/
!	!	!	!	!	!	!	!LO:SIC:v:s=g#	!	!	!	!	!	!	!	!	!	!	!	!	!	!LO:SIC:v:s=g#
4E\	.	.	4B/	.	4e/	.	4g/|	.	.	.	.	.	.	.	.	.	.	4e\	4e\	4e/	4g/
!	!	!	!	!	!	!	!	!LO:DY:b	!	!	!	!	!	!	!	!	!	!	!	!	!
4r	.	.	4B/	.	4r	.	4r	f	.	.	.	.	.	.	.	.	.	4r	4r	4r	4r
!	!	!	!	!	!LO:PB:g=original	!	!	!	!	!	!	!	!LO:PB:g=original	!	!	!	!	!LO:LB:g=original	!	!	!
=40	=40	=40	=40	=40	=40	=40	=40	=40	=40	=40	=40	=40	=40	=40	=40	=40	=40	=40	=40	=40	=40
!LO:TX:a:t=T&colon;	!	!	!	!	!	!	!	!	!	!	!	!	!	!	!	!	!	!	!	!	!
8AA/L	.	.	8A/L	.	4c#/	.	8.e/L	.	4AA/	Do-	4e\	Do-	4e\	Do-	.	4a\	Do-	4A/	4e\	2e/	2a\
8BB/	.	.	8B/	.	.	.	.	.	.	.	.	.	.	.	.	.	.	.	.	.	.
.	.	.	.	.	.	.	32f#/LL	.	.	.	.	.	.	.	.	.	.	.	.	.	.
.	.	.	.	.	.	.	32g/JJJ	.	.	.	.	.	.	.	.	.	.	.	.	.	.
8C#/	.	.	8c#/	.	4c#/	.	8a/L	.	4C#/	-na	4e\	-na	4e\	-na	.	4a\	-na	4r	4r	.	.
8AA/J	.	.	8A/J	.	.	.	8a/J	.	.	.	.	.	.	.	.	.	.	.	.	.	.
!LO:LB:g=original	!	!	!	!	!	!	!	!	!	!	!	!	!	!	!	!	!	!	!	!	!
8D/L	5	.	8d\L	.	8f#/L	.	(8.f#t/L	.	4D/	no-	4d\	no-	4f#\	no-	.	4a\	no-	2r	2r	2f#/	4a\
8C#/	.	.	8c#\	.	8e/	.	.	.	.	.	.	.	.	.	.	.	.	.	.	.	.
.	.	.	.	.	.	.	32g/LL	.	.	.	.	.	.	.	.	.	.	.	.	.	.
.	.	.	.	.	.	.	32a/JJJ)	.	.	.	.	.	.	.	.	.	.	.	.	.	.
8BB/	6	.	8B\	.	8d/	.	8b/L	.	4D/	-bis	4d\	-bis	4f#\	-bis	.	4b\	-bis	.	.	.	4b\
8D/J	.	.	8d\J	.	8f#/J	.	8b/J	.	.	.	.	.	.	.	.	.	.	.	.	.	.
=41	=41	=41	=41	=41	=41	=41	=41	=41	=41	=41	=41	=41	=41	=41	=41	=41	=41	=41	=41	=41	=41
8E\L	5	.	8e\L	.	8g#X/L	.	(8.g#Xm/L	.	2E\	pa-	4B\	pa-	2g#X\	pa-	.	4b\	pa-	00r	00r	2g#X/	4b\
8D\	.	.	8d\	.	8f#/	.	.	.	.	.	.	.	.	.	.	.	.	.	.	.	.
.	.	.	.	.	.	.	32a/LL	.	.	.	.	.	.	.	.	.	.	.	.	.	.
.	.	.	.	.	.	.	32b/JJJ)	.	.	.	.	.	.	.	.	.	.	.	.	.	.
8C#\	6	.	8c#\	.	8e/	.	8cc#/L	.	.	.	4G#X/	-cem	.	.	.	4cc#\	.	.	.	.	4cc#\
8E\J	.	.	8e\J	.	8g#/J	.	8cc#/J	.	.	.	.	.	.	.	.	.	.	.	.	.	.
!	!	!	!	!	!	!	!	!	!	!	!	!	!	!	!	!LO:LB:g=original	!	!	!	!	!
8F#\L	5	.	8f#\L	.	8a/L	.	8.aT/L	.	2F#\	-cem	4F#/	.	2a\	-cem	.	4cc#\	-cem	.	.	2a/	4cc#\
8E\	.	.	8e\	.	8g#/	.	.	.	.	.	.	.	.	.	.	.	.	.	.	.	.
.	.	.	.	.	.	.	32b/LL	.	.	.	.	.	.	.	.	.	.	.	.	.	.
.	.	.	.	.	.	.	32cc#/JJJ	.	.	.	.	.	.	.	.	.	.	.	.	.	.
8D\	6	.	8d\	.	8f#/	.	8dd\L	.	.	.	4A/	.	.	.	.	4dd\	.	.	.	.	4dd\
8F#\J	.	.	8f#\J	.	8a/J	.	8dd\J	.	.	.	.	.	.	.	.	.	.	.	.	.	.
=42	=42	=42	=42	=42	=42	=42	=42	=42	=42	=42	=42	=42	=42	=42	=42	=42	=42	=42	=42	=42	=42
8G#X\L	.	.	8g#X\L	.	8b/L	.	(8.b\L	.	4G#X\	do-	4G/	do-	4b\	do-	.	4dd\	do-	.	.	2.b\	4dd\
8F#\	.	.	8f#\	.	8a/	.	.	.	.	.	.	.	.	.	.	.	.	.	.	.	.
.	.	.	.	.	.	.	32cc#\LL	.	.	.	.	.	.	.	.	.	.	.	.	.	.
.	.	.	.	.	.	.	32dd\JJJ)	.	.	.	.	.	.	.	.	.	.	.	.	.	.
8E\	.	.	8e\	.	8g#X/	.	8ee\L	.	4G#\	-na	4d\	-na	4b\	-na	.	4ee\	-na	.	.	.	4ee\
8G#\J	.	.	8g#\J	.	8b/J	.	8ee\J	.	.	.	.	.	.	.	.	.	.	.	.	.	.
!	!	!	!LO:LB:g=original	!	!	!	!LO:LB:g=original	!	!LO:LB:g=original	!	!LO:LB:g=original	!	!	!	!	!	!	!	!	!	!
8A\L	.	.	8a\L	.	4a/	.	(8.cc#t\L	.	4A\	no-	4c#\	no-	4a\	no-	.	4ee\	no-	.	.	.	4ee\
8B\	.	.	8b\	.	.	.	.	.	.	.	.	.	.	.	.	.	.	.	.	.	.
.	.	.	.	.	.	.	32b\LL	.	.	.	.	.	.	.	.	.	.	.	.	.	.
.	.	.	.	.	.	.	32cc#\JJJ)	.	.	.	.	.	.	.	.	.	.	.	.	.	.
8c#\	.	.	8cc#\	.	4A/	.	4ee\	.	4B\	-bis	4A\	-bis	4a\	-bis	.	4ee\	-bis	.	.	8cc#\L	4aa\
8A\J	.	.	8a\J	.	.	.	.	.	.	.	.	.	.	.	.	.	.	.	.	8ee\J	.
!	!	!	!	!	!	!	!	!	!	!	!	!	!	!	!	!	!	!	!	!LO:LB:g=original	!
=43	=43	=43	=43	=43	=43	=43	=43	=43	=43	=43	=43	=43	=43	=43	=43	=43	=43	=43	=43	=43	=43
*	*	*	*	*	*tremolo	*	*tremolo	*	*	*	*	*	*	*	*	*	*	*	*	*	*
8d\L	.	.	8dd\L	.	16f#/LL	.	16ee\LL	.	8d\L	pa-	4d\	pa-	2f#\	pa-	.	4ee\	pa-	.	.	4ee\	2ff#\
.	.	.	.	.	16f#/	.	16ee\	.	.	.	.	.	.	.	.	.	.	.	.	.	.
8c#\	.	.	8cc#\	.	16f#/	.	16ee\	.	8c#\	.	.	.	.	.	.	.	.	.	.	.	.
.	.	.	.	.	16f#/	.	16ee\JJ	.	.	.	.	.	.	.	.	.	.	.	.	.	.
8B\	.	.	8b\	.	16f#/	.	16dd\LL	.	8B\	.	4c#\	.	.	.	.	4dd\	.	.	.	2dd\	.
.	.	.	.	.	16f#/	.	16dd\	.	.	.	.	.	.	.	.	.	.	.	.	.	.
8A\J	.	.	8a\J	.	16f#/	.	16dd\	.	8A\J	.	.	.	.	.	.	.	.	.	.	.	.
.	.	.	.	.	16f#/JJ	.	16dd\	.	.	.	.	.	.	.	.	.	.	.	.	.	.
!LO:TX:t=P:problem:mixed beam	!	!	!LO:TX:t=P:problem:mixed beam	!	!	!	!	!	!	!	!	!	!	!	!	!	!	!	!	!	!
8G#X\L	.	.	8g#X\L	.	16e/LL	.	16dd\	.	4G#X\	.	4B\	.	2e\	-cem	.	4dd\	.	.	.	.	2ee\
.	.	.	.	.	16e/	.	16dd\	.	.	.	.	.	.	.	.	.	.	.	.	.	.
8E\	.	.	8e\	.	16e/	.	16dd\	.	.	.	.	.	.	.	.	.	.	.	.	.	.
.	.	.	.	.	16e/	.	16dd\JJ	.	.	.	.	.	.	.	.	.	.	.	.	.	.
8A\	.	.	8a\	.	16e/	.	16cc#\LL	.	4A\	-cem	4A\	-cem	.	.	.	4cc#\	-cem	.	.	4cc#\	.
.	.	.	.	.	16e/	.	16cc#\	.	.	.	.	.	.	.	.	.	.	.	.	.	.
8AA/J	.	.	8A/J	.	16e/	.	16cc#\	.	.	.	.	.	.	.	.	.	.	.	.	.	.
.	.	.	.	.	16e/JJ	.	16cc#\JJ	.	.	.	.	.	.	.	.	.	.	.	.	.	.
=44	=44	=44	=44	=44	=44	=44	=44	=44	=44	=44	=44	=44	=44	=44	=44	=44	=44	=44	=44	=44	=44
*tremolo	*	*	*	*	*	*	*Xtremolo	*	*	*	*	*	*	*ij	*	*	*	*	*	*	*
8D\L	.	.	8d\L	.	16f#/LL	.	4b\	.	4D\	do-	4d\	do-	4f#\	do-	.	4b\	do-	.	.	2b\	2dd\
.	.	.	.	.	16f#/	.	.	.	.	.	.	.	.	.	.	.	.	.	.	.	.
8D\	.	.	8d\	.	16f#/	.	.	.	.	.	.	.	.	.	.	.	.	.	.	.	.
.	.	.	.	.	16f#/	.	.	.	.	.	.	.	.	.	.	.	.	.	.	.	.
.	.	.	.	.	.	.	8qee/	.	.	.	.	.	.	.	.	.	.	.	.	.	.
8D\	.	.	8d\	.	16f#/	.	8dd\L	.	4D\	-na	4d\	-na	4f#\	-na	.	4b\	-na	.	.	.	.
.	.	.	.	.	16f#/	.	.	.	.	.	.	.	.	.	.	.	.	.	.	.	.
8D\J	.	.	8d\J	.	16f#/	.	16cc#\L	.	.	.	.	.	.	.	.	.	.	.	.	.	.
.	.	.	.	.	16f#/JJ	.	16b\JJ	.	.	.	.	.	.	.	.	.	.	.	.	.	.
8D\L	.	.	8d\L	.	16f#/LL	.	4ff#\	.	4D\	no-	4d\	no-	4f#\	no-	.	4b\	no-	.	.	2b\	2dd\
.	.	.	.	.	16f#/	.	.	.	.	.	.	.	.	.	.	.	.	.	.	.	.
8D\	.	.	8d\	.	16f#/	.	.	.	.	.	.	.	.	.	.	.	.	.	.	.	.
.	.	.	.	.	16f#/	.	.	.	.	.	.	.	.	.	.	.	.	.	.	.	.
.	.	.	.	.	.	.	8qee/	.	.	.	.	.	.	.	.	.	.	.	.	.	.
8D\	.	.	8d\	.	16f#/	.	8dd\L	.	4D\	-bis	4d\	-bis	4f#\	-bis	.	4b\	-bis	.	.	.	.
.	.	.	.	.	16f#/	.	.	.	.	.	.	.	.	.	.	.	.	.	.	.	.
8D\J	.	.	8d\J	.	16f#/	.	16cc#\L	.	.	.	.	.	.	.	.	.	.	.	.	.	.
.	.	.	.	.	16f#/JJ	.	16b\JJ	.	.	.	.	.	.	.	.	.	.	.	.	.	.
!	!	!	!	!	!	!	!	!	!	!	!	!	!	!	!	!	!	!	!LO:LB:g=original	!	!
=45	=45	=45	=45	=45	=45	=45	=45	=45	=45	=45	=45	=45	=45	=45	=45	=45	=45	=45	=45	=45	=45
!	!	!	!	!	!	!	!	!	!	!	!	!	!	!	!	!	!	!	!	!LO:SIC:v:s=a	!
8E\L	6 4	.	8e\L	.	16f#/ 16aLL	.	8cc#\L	.	2E\	pa-	1A	pa-	2e\	pa-	.	2cc#\	pa-	4A/	4e\	2b\	2cc#\
.	.	.	.	.	16f#/ 16a	.	.	.	.	.	.	.	.	.	.	.	.	.	.	.	.
8E\	.	.	8e\	.	16f#/ 16a	.	16a\L	.	.	.	.	.	.	.	.	.	.	.	.	.	.
.	.	.	.	.	16f#/ 16a	.	16cc#\JJ	.	.	.	.	.	.	.	.	.	.	.	.	.	.
8E\	.	.	8e\	.	16f#/ 16a	.	8ee\L	.	.	.	.	.	.	.	.	.	.	4A/	4e\	.	.
.	.	.	.	.	16f#/ 16a	.	.	.	.	.	.	.	.	.	.	.	.	.	.	.	.
8E\J	.	.	8e\J	.	16f#/ 16a	.	16cc#\L	.	.	.	.	.	.	.	.	.	.	.	.	.	.
.	.	.	.	.	16f#/ 16aJJ	.	16ee\JJ	.	.	.	.	.	.	.	.	.	.	.	.	.	.
8E\L	.	.	8e\L	.	16f#/ 16aLL	.	8aa\L	.	2E\	-cem	.	.	2e\	-cem	.	2cc#\	-cem	4A/	4e\	2a\	2cc#\
.	.	.	.	.	16f#/ 16a	.	.	.	.	.	.	.	.	.	.	.	.	.	.	.	.
8E\	.	.	8e\	.	16f#/ 16a	.	16ee\L	.	.	.	.	.	.	.	.	.	.	.	.	.	.
.	.	.	.	.	16f#/ 16a	.	16dd\JJ	.	.	.	.	.	.	.	.	.	.	.	.	.	.
8E\	.	.	8e\	.	16f#/ 16a	.	8cc#\L	.	.	.	.	.	.	.	.	.	.	4A/	4e\	.	.
.	.	.	.	.	16f#/ 16a	.	.	.	.	.	.	.	.	.	.	.	.	.	.	.	.
8E\J	.	.	8e\J	.	16f#/ 16a	.	16b\L	.	.	.	.	.	.	.	.	.	.	.	.	.	.
.	.	.	.	.	16f#/ 16aJJ	.	16a\JJ	.	.	.	.	.	.	.	.	.	.	.	.	.	.
*	*	*	*	*	*	*	*	*	*	*	*	*	*	*Xij	*	*	*	*	*	*	*
!	!	!	!	!	!	!	!	!	!	!	!	!	!LO:LB:g=original	!	!	!	!	!	!	!	!
=46	=46	=46	=46	=46	=46	=46	=46	=46	=46	=46	=46	=46	=46	=46	=46	=46	=46	=46	=46	=46	=46
*	*	*	*	*	*	*	*	*	*	*ij	*	*	*	*	*	*	*	*	*	*	*
!	!	!	!	!	!	!	!LO:TX:t=P:problem:mixed beam	!	!	!	!	!	!	!	!	!	!	!	!	!	!
8E\L	x #	.	8e\L	.	16b\LL	.	16e/LL	.	1E	pa-	1G#X	.	1e	pa-	.	1b	pa-	4e\	4e\	2g#X/	2b\
.	.	.	.	.	16b\	.	16gg#X\	.	.	.	.	.	.	.	.	.	.	.	.	.	.
8E\	.	.	8e\	.	16b\	.	16gg#\	.	.	.	.	.	.	.	.	.	.	.	.	.	.
.	.	.	.	.	16b\	.	16gg#\JJ	.	.	.	.	.	.	.	.	.	.	.	.	.	.
*	*	*	*	*	*	*	*tremolo	*	*	*	*	*	*	*	*	*	*	*	*	*	*
8E\	.	.	8e\	.	16b\	.	16gg#\LL	.	.	.	.	.	.	.	.	.	.	4e\	4e\	.	.
.	.	.	.	.	16b\	.	16gg#\	.	.	.	.	.	.	.	.	.	.	.	.	.	.
8E\J	.	.	8e\J	.	16b\	.	16gg#\	.	.	.	.	.	.	.	.	.	.	.	.	.	.
.	.	.	.	.	16b\JJ	.	16gg#\JJ	.	.	.	.	.	.	.	.	.	.	.	.	.	.
!LO:LB:g=original	!	!	!	!	!	!	!	!	!	!	!	!	!	!	!	!	!	!	!	!	!
8E\L	.	.	8e\L	.	16b\LL	.	16gg#\LL	.	.	.	.	.	.	.	.	.	.	4e\	4e\	2g#/	2b\
.	.	.	.	.	16b\	.	16gg#\	.	.	.	.	.	.	.	.	.	.	.	.	.	.
8E\	.	.	8e\	.	16b\	.	16gg#\	.	.	.	.	.	.	.	.	.	.	.	.	.	.
.	.	.	.	.	16b\	.	16gg#\	.	.	.	.	.	.	.	.	.	.	.	.	.	.
8E\	.	.	8e\	.	16b\	.	16gg#\	.	.	.	.	.	.	.	.	.	.	4e\	4e\	.	.
.	.	.	.	.	16b\	.	16gg#\	.	.	.	.	.	.	.	.	.	.	.	.	.	.
8E\J	.	.	8e\J	.	16b\	.	16gg#\	.	.	.	.	.	.	.	.	.	.	.	.	.	.
.	.	.	.	.	16b\JJ	.	16gg#\JJ	.	.	.	.	.	.	.	.	.	.	.	.	.	.
*Xtremolo	*	*	*	*	*	*	*Xtremolo	*	*	*	*	*	*	*	*	*	*	*	*	*	*
!	!	!	!	!	!LO:LB:g=original	!	!	!	!	!	!	!	!	!	!	!	!	!	!	!	!
=47	=47	=47	=47	=47	=47	=47	=47	=47	=47	=47	=47	=47	=47	=47	=47	=47	=47	=47	=47	=47	=47
4AA/	.	.	4A/	.	4e\ 4cc#	.	4a\ 4aa	.	4AA/	-cem	4A\	-cem	4e\	-cem	.	4cc#\	-cem	4A/	4e\	4a/	4cc#\
*	*	*	*	*	*	*	*	*	*	*Xij	*	*	*	*	*	*	*	*	*	*	*
4AA/	.	.	4A/	.	4e\ 4ee	.	4a\ 4ccc#	.	4r	.	4r	.	4r	.	.	4r	.	4A/	4e\	4a/	4cc#\
4AA/	.	.	4A/	.	4e\ 4cc#	.	4a\ 4aa	.	2r	.	2r	.	2r	.	.	2r	.	4A/	4e\	4a/	4cc#\
4r	.	.	4r	.	4r	.	4r	.	.	.	.	.	.	.	.	.	.	4r	4r	4r	4r
!	!	!	!	!	!	!	!	!	!	!	!	!	!	!	!	!LO:LB:g=original	!	!	!	!	!LO:LB:g=original
=48	=48	=48	=48	=48	=48	=48	=48	=48	=48	=48	=48	=48	=48	=48	=48	=48	=48	=48	=48	=48	=48
!	!	!	!	!LO:DY:b	!	!LO:DY:b	!	!LO:DY:b	!	!	!	!	!	!	!	!	!	!	!	!	!
4AA/	.	.	4A/	p	2c#/	p	2e/	p	00r	.	00r	.	00r	.	.	00r	.	2A/	2e\	2cc#\	2ee\
4r	.	.	4r	.	.	.	.	.	.	.	.	.	.	.	.	.	.	.	.	.	.
2r	.	.	2r	.	4d/	.	(4f#/	.	.	.	.	.	.	.	.	.	.	4d\	4f#\	4dd\	4ff#\
.	.	.	.	.	4e/	.	4gn/)	.	.	.	.	.	.	.	.	.	.	4e\	4g\	4ee\	4ggn\
=49	=49	=49	=49	=49	=49	=49	=49	=49	=49	=49	=49	=49	=49	=49	=49	=49	=49	=49	=49	=49	=49
4AA/	.	.	4A/	.	8e/L	.	8g/L	.	.	.	.	.	.	.	.	.	.	8e\L	8g\L	8ee\L	8gg\L
.	.	.	.	.	8d/	.	8f#/	.	.	.	.	.	.	.	.	.	.	8d\	8f#\	8dd\	8ff#\
4r	.	.	4r	.	8c#/	.	8e/	.	.	.	.	.	.	.	.	.	.	8A\	8e\	8cc#\	8ee\
.	.	.	.	.	8d/J	.	8f#/J	.	.	.	.	.	.	.	.	.	.	8d\J	8f#\J	8dd\J	8ff#\J
2r	.	.	2r	.	2d/	.	2f#/	.	.	.	.	.	.	.	.	.	.	2d\	2f#\	2dd\	2ff#\
!	!	!	!	!	!	!	!LO:LB:g=original	!	!	!	!	!	!	!	!	!	!	!	!	!	!
=50	=50	=50	=50	=50	=50	=50	=50	=50	=50	=50	=50	=50	=50	=50	=50	=50	=50	=50	=50	=50	=50
4AA/	.	.	4A/	.	4r	.	4r	.	.	.	.	.	.	.	.	.	.	2d\	2f#\	4r	4r
4r	.	.	4r	.	4d/	.	4f#/	.	.	.	.	.	.	.	.	.	.	.	.	4dd\	4ff#\
2r	.	.	2r	.	4f#/	.	8b/L	.	.	.	.	.	.	.	.	.	.	4f#\	4a\	4ff#\	4aa\
.	.	.	.	.	.	.	(8a/	.	.	.	.	.	.	.	.	.	.	.	.	.	.
.	.	.	.	.	8e/L	.	8g/	.	.	.	.	.	.	.	.	.	.	8e\L	8g\L	8ee\L	8gg\L
.	.	.	.	.	8d/J	.	8f#/J)	.	.	.	.	.	.	.	.	.	.	8d\J	8f#\J	8dd\J	8ff#\J
!	!	!	!LO:LB:g=original	!	!	!	!	!	!	!	!	!	!	!	!	!	!	!	!	!	!
=51	=51	=51	=51	=51	=51	=51	=51	=51	=51	=51	=51	=51	=51	=51	=51	=51	=51	=51	=51	=51	=51
4AA/	.	.	4A/	.	8c#/	.	8e/L	.	.	.	.	.	.	.	.	.	.	2A/	2e\	2cc#\	2ee\
.	.	.	.	.	8r	.	8A/	.	.	.	.	.	.	.	.	.	.	.	.	.	.
4r	.	.	4r	.	8c#/	.	8e/	.	.	.	.	.	.	.	.	.	.	.	.	.	.
.	.	.	.	.	8r	.	8A/J	.	.	.	.	.	.	.	.	.	.	.	.	.	.
2r	.	.	2r	.	8d/	.	8f#/L	.	.	.	.	.	.	.	.	.	.	2d\	2f#\	2dd\	2ff#\
.	.	.	.	.	8r	.	8A/	.	.	.	.	.	.	.	.	.	.	.	.	.	.
.	.	.	.	.	8d/	.	8f#/	.	.	.	.	.	.	.	.	.	.	.	.	.	.
.	.	.	.	.	8r	.	8A/J	.	.	.	.	.	.	.	.	.	.	.	.	.	.
!	!	!	!	!	!	!	!	!	!	!	!	!	!	!	!	!	!	!LO:LB:g=original	!	!	!
=52	=52	=52	=52	=52	=52	=52	=52	=52	=52	=52	=52	=52	=52	=52	=52	=52	=52	=52	=52	=52	=52
4AA/	.	.	4c#X\	.	8e/	.	8g/L	.	0r	.	1r	.	0r	.	.	0r	.	2e\	2g\	2ee\	2gg\
.	.	.	.	.	8r	.	8A/	.	.	.	.	.	.	.	.	.	.	.	.	.	.
4r	.	.	4r	.	8e/	.	8g/	.	.	.	.	.	.	.	.	.	.	.	.	.	.
.	.	.	.	.	8r	.	8A/J	.	.	.	.	.	.	.	.	.	.	.	.	.	.
2r	.	.	4d\	.	8d/	.	8f#/L	.	.	.	.	.	.	.	.	.	.	2d\	2f#\	2dd\	2ff#\
.	.	.	.	.	8r	.	8A/	.	.	.	.	.	.	.	.	.	.	.	.	.	.
.	.	.	4r	.	8d/	.	8f#/	.	.	.	.	.	.	.	.	.	.	.	.	.	.
.	.	.	.	.	8r	.	8A/J	.	.	.	.	.	.	.	.	.	.	.	.	.	.
=53	=53	=53	=53	=53	=53	=53	=53	=53	=53	=53	=53	=53	=53	=53	=53	=53	=53	=53	=53	=53	=53
4AA/	.	.	4A/	.	4c#/	.	8e/L	.	.	.	1r	.	.	.	.	.	.	4A/	4e\	4cc#\	4ee\
.	.	.	.	.	.	.	8a/	.	.	.	.	.	.	.	.	.	.	.	.	.	.
4AA/	.	.	4A/	.	4c#/	.	8A/	.	.	.	.	.	.	.	.	.	.	4A/	4e\	4cc#\	4ee\
.	.	.	.	.	.	.	8A/J	.	.	.	.	.	.	.	.	.	.	.	.	.	.
!	!	!	!	!	!LO:LB:g=original	!	!	!	!	!	!	!	!	!	!	!	!	!	!	!	!
4AA/	.	.	4A/	.	4c#/	.	4A/	.	.	.	.	.	.	.	.	.	.	4A/	4e\	4cc#\	4ee\
4r	.	.	4r	.	4r	.	4r	.	.	.	.	.	.	.	.	.	.	4r	4r	4r	4r
!	!	!	!	!	!	!	!	!	!	!	!	!	!	!	!	!	!	!	!LO:LB:g=original	!	!
=54	=54	=54	=54	=54	=54	=54	=54	=54	=54	=54	=54	=54	=54	=54	=54	=54	=54	=54	=54	=54	=54
4AA/	.	.	4A/	.	2c#/	.	2e/	.	2AA/	do-	2A\	do-	2c#\	Do-	.	2e/	Do-	00r	00r	00r	00r
4r	.	.	4r	.	.	.	.	.	.	.	.	.	.	.	.	.	.	.	.	.	.
2r	.	.	2r	.	4d/	.	4f#/	.	2AA/	-na	2A\	-na	4d\	-na	.	4f#/	.	.	.	.	.
.	.	.	.	.	4e/	.	4gn/	.	.	.	.	.	4e\	.	.	4gn/	-na	.	.	.	.
!	!	!	!	!	!	!	!	!	!LO:LB:g=original	!	!LO:LB:g=original	!	!	!	!	!	!	!	!	!	!
=55	=55	=55	=55	=55	=55	=55	=55	=55	=55	=55	=55	=55	=55	=55	=55	=55	=55	=55	=55	=55	=55
4AA/	.	.	4A/	.	(8e/L	.	8g/L	.	2AA/	no-	2A\	no-	4e\	no-	.	4g/	no-	.	.	.	.
.	.	.	.	.	8d/	.	8f#/	.	.	.	.	.	.	.	.	.	.	.	.	.	.
4r	.	.	4r	.	8c#/	.	8en/	.	.	.	.	.	4d\	.	.	4f#/	.	.	.	.	.
.	.	.	.	.	8d/J)	.	8f#/J	.	.	.	.	.	.	.	.	.	.	.	.	.	.
!LO:LB:g=original	!	!	!	!	!	!	!	!	!	!	!	!	!	!	!	!	!	!	!	!	!
2r	.	.	2r	.	2d/	.	2f#/	.	2AA/	-bis	2A\	-bis	2d\	-bis	.	2f#/	-bis	.	.	.	.
=56	=56	=56	=56	=56	=56	=56	=56	=56	=56	=56	=56	=56	=56	=56	=56	=56	=56	=56	=56	=56	=56
4AA/	.	.	4A/	.	4r	.	4r	.	1AA	pa-	1A	pa-	2d\	pa-	.	2f#/	pa-	.	.	.	.
4r	.	.	4r	.	4d/	.	4f#/	.	.	.	.	.	.	.	.	.	.	.	.	.	.
2r	.	.	2r	.	8g/L	.	8b/L	.	.	.	.	.	8g\L	.	.	8b\L	.	.	.	.	.
.	.	.	.	.	(8f#/	.	8a/	.	.	.	.	.	8f#\	.	.	8a\J	.	.	.	.	.
.	.	.	.	.	8e/	.	8g/	.	.	.	.	.	8e\	.	.	8g\L	.	.	.	.	.
.	.	.	.	.	8d/J)	.	8f#/J	.	.	.	.	.	8d\J	.	.	8f#\J	.	.	.	.	.
=57	=57	=57	=57	=57	=57	=57	=57	=57	=57	=57	=57	=57	=57	=57	=57	=57	=57	=57	=57	=57	=57
4AA/	.	.	4A/	.	4.e/	.	4.g/	.	1AA	.	1A	.	2e\	.	.	2g\	.	.	.	.	.
4r	.	.	4r	.	.	.	.	.	.	.	.	.	.	.	.	.	.	.	.	.	.
.	.	.	.	.	8e/	.	8g/	.	.	.	.	.	.	.	.	.	.	.	.	.	.
2r	.	.	2r	.	(8f#/L	.	(8a/L	.	.	.	.	.	8f#\L	.	.	8a\L	.	.	.	.	.
.	.	.	.	.	8e/	.	8g/	.	.	.	.	.	8e\	.	.	8g\	.	.	.	.	.
.	.	.	.	.	8d/	.	8f#/	.	.	.	.	.	8d\	.	.	8f#\	.	.	.	.	.
.	.	.	.	.	8e/J)	.	8e/J)	.	.	.	.	.	8c#\J	.	.	8e\J	.	.	.	.	.
!	!	!	!	!	!	!	!LO:LB:g=original	!	!	!	!	!	!	!	!	!	!	!	!	!	!
=58	=58	=58	=58	=58	=58	=58	=58	=58	=58	=58	=58	=58	=58	=58	=58	=58	=58	=58	=58	=58	=58
4AA/	.	.	4A/	.	4.d/	.	4.f#/	.	1AA	.	1A	.	4.d\	.	.	4.f#/	.	0r	0r	0r	0r
4r	.	.	4r	.	.	.	.	.	.	.	.	.	.	.	.	.	.	.	.	.	.
.	.	.	.	.	16c#/LL	.	16e/LL	.	.	.	.	.	16c#\LL	.	.	16e/LL	.	.	.	.	.
.	.	.	.	.	16d/JJ	.	16f#/JJ	.	.	.	.	.	16d\JJ	.	.	16f#/JJ	.	.	.	.	.
!	!	!	!	!	!	!	!	!	!	!	!	!	!LO:LB:g=original	!	!	!	!	!	!	!	!
2r	.	.	2r	.	4e/	.	4g/	.	.	.	.	.	4e\	.	.	4g/	.	.	.	.	.
.	.	.	.	.	4d/	.	4f#/	.	.	.	.	.	4d\	.	.	4f#/	.	.	.	.	.
!	!	!	!	!	!	!	!	!	!	!	!	!	!	!	!	!LO:LB:g=original	!	!	!	!	!
=59	=59	=59	=59	=59	=59	=59	=59	=59	=59	=59	=59	=59	=59	=59	=59	=59	=59	=59	=59	=59	=59
4AA/	.	.	1A	.	2c#/	.	2e/	.	1AA	.	1A	.	2c#\	.	.	2e/	.	.	.	.	.
4r	.	.	.	.	.	.	.	.	.	.	.	.	.	.	.	.	.	.	.	.	.
4AA/	.	.	.	.	2d/	.	2f#/	.	.	.	.	.	2d\	.	.	2f#/	.	.	.	.	.
4r	.	.	.	.	.	.	.	.	.	.	.	.	.	.	.	.	.	.	.	.	.
!	!	!	!LO:LB:g=original	!	!LO:LB:g=original	!	!	!	!	!	!	!	!	!	!	!	!	!	!	!	!
=60	=60	=60	=60	=60	=60	=60	=60	=60	=60	=60	=60	=60	=60	=60	=60	=60	=60	=60	=60	=60	=60
4AA/	.	.	4A/	.	4c#/	.	4e/	.	4AA/	-cem	4A\	-cem	4c#\	-cem	.	4e/	-cem	1r	1r	1r	1r
4AA/	.	.	4A/	.	4c#/	.	4e/	.	4r	.	4r	.	4r	.	.	4r	.	.	.	.	.
4AA/	.	.	4A/	.	4c#/	.	4e/	.	2r	.	2r	.	2r	.	.	2r	.	.	.	.	.
4r	.	.	4r	.	4r	.	4r	.	.	.	.	.	.	.	.	.	.	.	.	.	.
!	!	!	!	!	!	!	!	!	!	!	!	!	!	!	!	!	!	!	!	!LO:LB:g=original	!
=61	=61	=61	=61	=61	=61	=61	=61	=61	=61	=61	=61	=61	=61	=61	=61	=61	=61	=61	=61	=61	=61
!LO:TX:a:t=tut&colon;	!	!	!	!	!	!	!	!	!	!	!	!	!	!	!	!	!	!	!	!	!
4D\	.	.	4d\	.	4d/ 4dd	.	4d/ 4a 4ff#	.	0r	.	0r	.	0r	.	.	0r	.	4d\	4d\	4dd\	4ff#\
4r	.	.	4r	.	4r	.	8r	.	.	.	.	.	.	.	.	.	.	4r	4r	4r	4r
.	.	.	.	.	.	.	16d/LL	.	.	.	.	.	.	.	.	.	.	.	.	.	.
.	.	.	.	.	.	.	16f#/JJ	.	.	.	.	.	.	.	.	.	.	.	.	.	.
2r	.	.	2r	.	2r	.	8a\L|	.	.	.	.	.	.	.	.	.	.	2r	2r	2r	2r
.	.	.	.	.	.	.	8dd\|	.	.	.	.	.	.	.	.	.	.	.	.	.	.
.	.	.	.	.	.	.	8ff#\|	.	.	.	.	.	.	.	.	.	.	.	.	.	.
.	.	.	.	.	.	.	8aa\J|	.	.	.	.	.	.	.	.	.	.	.	.	.	.
=62	=62	=62	=62	=62	=62	=62	=62	=62	=62	=62	=62	=62	=62	=62	=62	=62	=62	=62	=62	=62	=62
!	!	!	!	!	!	!	!	!LO:DY:b	!	!	!	!	!	!	!	!	!	!	!	!	!
0r	.	.	8d\L	.	8b/L	.	8ddd\	p	.	.	.	.	.	.	.	.	.	0r	0r	0r	0r
.	.	.	8d\	.	8r	.	8r	.	.	.	.	.	.	.	.	.	.	.	.	.	.
.	.	.	8d\	.	8a/	.	8ccc#\	.	.	.	.	.	.	.	.	.	.	.	.	.	.
.	.	.	8d\J	.	8r	.	8r	.	.	.	.	.	.	.	.	.	.	.	.	.	.
.	.	.	8d\L	.	8g/	.	8bb\	.	.	.	.	.	.	.	.	.	.	.	.	.	.
.	.	.	8d\	.	8r	.	8r	.	.	.	.	.	.	.	.	.	.	.	.	.	.
.	.	.	8d\	.	8f#/J	.	8aa\	.	.	.	.	.	.	.	.	.	.	.	.	.	.
.	.	.	8d\J	.	8r	.	8r	.	.	.	.	.	.	.	.	.	.	.	.	.	.
=63	=63	=63	=63	=63	=63	=63	=63	=63	=63	=63	=63	=63	=63	=63	=63	=63	=63	=63	=63	=63	=63
.	.	.	8d\L	.	8g/L	.	8bb\	.	1r	.	1r	.	1r	.	.	1r	.	.	.	.	.
.	.	.	8d\	.	8r	.	8r	.	.	.	.	.	.	.	.	.	.	.	.	.	.
.	.	.	8d\	.	8f#/	.	8aa\	.	.	.	.	.	.	.	.	.	.	.	.	.	.
.	.	.	8d\J	.	8r	.	8r	.	.	.	.	.	.	.	.	.	.	.	.	.	.
.	.	.	8d\L	.	8e/	.	8gg\	.	.	.	.	.	.	.	.	.	.	.	.	.	.
.	.	.	8d\	.	8r	.	8r	.	.	.	.	.	.	.	.	.	.	.	.	.	.
.	.	.	8d\	.	8d/J	.	8ff#\	.	.	.	.	.	.	.	.	.	.	.	.	.	.
.	.	.	8d\J	.	8r	.	8r	.	.	.	.	.	.	.	.	.	.	.	.	.	.
=64	=64	=64	=64	=64	=64	=64	=64	=64	=64	=64	=64	=64	=64	=64	=64	=64	=64	=64	=64	=64	=64
*tremolo	*	*	*	*	*	*	*	*	*	*	*	*	*	*	*	*	*	*	*	*	*
.	.	.	.	.	.	.	8qaa/	.	.	.	.	.	.	.	.	.	.	.	.	.	.
8D\L	x 6 4	.	8d\L	.	16b\LL	.	8gg\L	.	4D\	Do-	4d\	do-	4g\	Do-	.	4b\	Do-	2r	2r	2b\	1gg
.	.	.	.	.	16b\	.	.	.	.	.	.	.	.	.	.	.	.	.	.	.	.
8D\	.	.	8d\	.	16b\	.	16ff#\L	.	.	.	.	.	.	.	.	.	.	.	.	.	.
.	.	.	.	.	16b\	.	16gg\JJ	.	.	.	.	.	.	.	.	.	.	.	.	.	.
.	.	.	.	.	.	.	8qaa/	.	.	.	.	.	.	.	.	.	.	.	.	.	.
8D\	.	.	8d\	.	16b\	.	8gg\L	.	4D\	-na	4d\	-na	4g\	-na	.	4b\	-na	.	.	.	.
.	.	.	.	.	16b\	.	.	.	.	.	.	.	.	.	.	.	.	.	.	.	.
8D\J	.	.	8d\J	.	16b\	.	16ff#\L	.	.	.	.	.	.	.	.	.	.	.	.	.	.
.	.	.	.	.	16b\JJ	.	16gg\JJ	.	.	.	.	.	.	.	.	.	.	.	.	.	.
!	!	!	!	!	!	!	!LO:LB:g=original	!	!	!	!	!	!	!	!	!	!	!	!	!	!
.	.	.	.	.	.	.	8qaa/	.	.	.	.	.	.	.	.	.	.	.	.	.	.
8D\L	7 4 3	.	8e\L	.	16cc#\LL	.	8gg\L	.	2D\	no-	2e\	no-	2e\	no-	.	2cc#\	no-	2A/	2e\	2cc#\	.
.	.	.	.	.	16cc#\	.	.	.	.	.	.	.	.	.	.	.	.	.	.	.	.
8D\	.	.	8e\	.	16cc#\	.	16ff#\L	.	.	.	.	.	.	.	.	.	.	.	.	.	.
.	.	.	.	.	16cc#\	.	16gg\JJ	.	.	.	.	.	.	.	.	.	.	.	.	.	.
.	.	.	.	.	.	.	8qaa/	.	.	.	.	.	.	.	.	.	.	.	.	.	.
8D\	.	.	8e\	.	16cc#\	.	8gg\L	.	.	.	.	.	.	.	.	.	.	.	.	.	.
.	.	.	.	.	16cc#\	.	.	.	.	.	.	.	.	.	.	.	.	.	.	.	.
8D\J	.	.	8e\J	.	16cc#\	.	16ff#\L	.	.	.	.	.	.	.	.	.	.	.	.	.	.
.	.	.	.	.	16cc#\JJ	.	16gg\JJ	.	.	.	.	.	.	.	.	.	.	.	.	.	.
=65	=65	=65	=65	=65	=65	=65	=65	=65	=65	=65	=65	=65	=65	=65	=65	=65	=65	=65	=65	=65	=65
!	!	!	!	!	!	!	!	!LO:DY:b	!	!	!	!	!	!	!	!	!	!	!	!	!
4D\	.	.	4d\	.	4d/ 4dd	.	4d\ 4a 4ff#	f	4D\	-bis	4d\	-bis	4f#\	-bis	.	4dd\	-bis	4F#/	4d\	4dd\	4ff#\
4r	.	.	4r	.	4r	.	8r	.	4r	.	4r	.	4r	.	.	4r	.	4r	4r	4r	4r
.	.	.	.	.	.	.	16d/LL	.	.	.	.	.	.	.	.	.	.	.	.	.	.
!	!	!	!	!	!	!	!	!LO:DY:b	!	!	!	!	!	!	!	!	!	!	!	!	!
.	.	.	.	.	.	.	16f#/JJ	p	.	.	.	.	.	.	.	.	.	.	.	.	.
2r	.	.	2r	.	2r	.	8a/L	.	2r	.	2r	.	2r	.	.	2r	.	2r	2r	2r	2r
.	.	.	.	.	.	.	8d/	.	.	.	.	.	.	.	.	.	.	.	.	.	.
.	.	.	.	.	.	.	8f#/	.	.	.	.	.	.	.	.	.	.	.	.	.	.
.	.	.	.	.	.	.	8a/J	.	.	.	.	.	.	.	.	.	.	.	.	.	.
!LO:LB:g=original	!	!	!	!	!	!	!	!	!	!	!	!	!	!	!	!	!	!	!	!	!
=66	=66	=66	=66	=66	=66	=66	=66	=66	=66	=66	=66	=66	=66	=66	=66	=66	=66	=66	=66	=66	=66
!LO:TX:b:t=violone	!	!	!	!	!	!	!	!	!	!	!	!	!	!	!	!	!	!	!	!	!
!LO:TX:a:t=Solo	!	!	!	!	!	!LO:DY:b	!	!LO:DY:b	!	!	!	!	!	!	!	!	!	!	!	!	!
8B\|	.	.	8D/	.	16d/LL	p	8dd\	p	0r	.	0r	.	0r	.	.	0r	.	4D/	4d\	0r	0r
.	.	.	.	.	16d/	.	.	.	.	.	.	.	.	.	.	.	.	.	.	.	.
8r	.	.	8r	.	16d/	.	8r	.	.	.	.	.	.	.	.	.	.	.	.	.	.
.	.	.	.	.	16d/	.	.	.	.	.	.	.	.	.	.	.	.	.	.	.	.
8A\|	.	.	8D/	.	16d/	.	8cc#\	.	.	.	.	.	.	.	.	.	.	4D/	4d\	.	.
.	.	.	.	.	16d/	.	.	.	.	.	.	.	.	.	.	.	.	.	.	.	.
8r	.	.	8r	.	16d/	.	8r	.	.	.	.	.	.	.	.	.	.	.	.	.	.
.	.	.	.	.	16d/JJ	.	.	.	.	.	.	.	.	.	.	.	.	.	.	.	.
8G\|	.	.	8D/	.	16d/LL	.	8b\	.	.	.	.	.	.	.	.	.	.	4D/	4d\	.	.
.	.	.	.	.	16d/	.	.	.	.	.	.	.	.	.	.	.	.	.	.	.	.
8r	.	.	8r	.	16d/	.	8r	.	.	.	.	.	.	.	.	.	.	.	.	.	.
.	.	.	.	.	16d/	.	.	.	.	.	.	.	.	.	.	.	.	.	.	.	.
8F#\|	.	.	8D/	.	16d/	.	8a\	.	.	.	.	.	.	.	.	.	.	4D/	4d\	.	.
.	.	.	.	.	16d/	.	.	.	.	.	.	.	.	.	.	.	.	.	.	.	.
8r	.	.	8r	.	16d/	.	8r	.	.	.	.	.	.	.	.	.	.	.	.	.	.
.	.	.	.	.	16d/JJ	.	.	.	.	.	.	.	.	.	.	.	.	.	.	.	.
=67	=67	=67	=67	=67	=67	=67	=67	=67	=67	=67	=67	=67	=67	=67	=67	=67	=67	=67	=67	=67	=67
8G\|	.	.	8D/	.	16d/LL	.	8b/	.	.	.	.	.	.	.	.	.	.	4D/	4d\	.	.
.	.	.	.	.	16d/	.	.	.	.	.	.	.	.	.	.	.	.	.	.	.	.
8r	.	.	8r	.	16d/	.	8r	.	.	.	.	.	.	.	.	.	.	.	.	.	.
.	.	.	.	.	16d/	.	.	.	.	.	.	.	.	.	.	.	.	.	.	.	.
8F#\|	.	.	8D/	.	16d/	.	8a/	.	.	.	.	.	.	.	.	.	.	4D/	4d\	.	.
.	.	.	.	.	16d/	.	.	.	.	.	.	.	.	.	.	.	.	.	.	.	.
8r	.	.	8r	.	16d/	.	8r	.	.	.	.	.	.	.	.	.	.	.	.	.	.
.	.	.	.	.	16d/JJ	.	.	.	.	.	.	.	.	.	.	.	.	.	.	.	.
!	!	!	!	!	!LO:LB:g=original	!	!	!	!	!	!	!	!	!	!	!	!	!	!	!	!
8E\|	.	.	8D/	.	16d/LL	.	8g/	.	.	.	.	.	.	.	.	.	.	4D/	4d\	.	.
.	.	.	.	.	16d/	.	.	.	.	.	.	.	.	.	.	.	.	.	.	.	.
8r	.	.	8r	.	16d/	.	8r	.	.	.	.	.	.	.	.	.	.	.	.	.	.
.	.	.	.	.	16d/	.	.	.	.	.	.	.	.	.	.	.	.	.	.	.	.
8D\|	.	.	8D/	.	16d/	.	8f#/	.	.	.	.	.	.	.	.	.	.	4D/	4d\	.	.
.	.	.	.	.	16d/	.	.	.	.	.	.	.	.	.	.	.	.	.	.	.	.
8r	.	.	8r	.	16d/	.	8r	.	.	.	.	.	.	.	.	.	.	.	.	.	.
.	.	.	.	.	16d/JJ	.	.	.	.	.	.	.	.	.	.	.	.	.	.	.	.
!	!	!	!LO:LB:g=original	!	!	!	!	!	!	!	!LO:LB:g=original	!	!	!	!	!	!	!	!	!	!
=68	=68	=68	=68	=68	=68	=68	=68	=68	=68	=68	=68	=68	=68	=68	=68	=68	=68	=68	=68	=68	=68
!	!	!	!LO:TX:t=P:problem:mixed beam	!	!	!	!	!	!	!	!	!	!	!	!	!	!	!	!	!	!LO:TX:t=P:problem:brak t. 68
.	.	.	.	.	.	.	8qaa/	.	.	.	.	.	.	.	.	.	.	.	.	.	.
8D\L	x 6 4	.	8D/L	.	16b\LL	.	8gg\L	.	2D\	pa-	2d\	pa-	2g\	pa-	.	2a\	pa-	2r	2r	2b\	1ryy
.	.	.	.	.	16b\	.	.	.	.	.	.	.	.	.	.	.	.	.	.	.	.
!	!	!	!	!LO:DY:b	!	!	!	!	!	!	!	!	!	!	!	!	!	!	!	!	!
8D\	.	.	8d\	f	16b\	.	16ff#\L	.	.	.	.	.	.	.	.	.	.	.	.	.	.
.	.	.	.	.	16b\	.	16gg\JJ	.	.	.	.	.	.	.	.	.	.	.	.	.	.
.	.	.	.	.	.	.	8qaa/	.	.	.	.	.	.	.	.	.	.	.	.	.	.
8D\	.	.	8d\	.	16b\	.	8gg\L	.	.	.	.	.	.	.	.	.	.	.	.	.	.
.	.	.	.	.	16b\	.	.	.	.	.	.	.	.	.	.	.	.	.	.	.	.
8D\J	.	.	8d\J	.	16b\	.	16ff#\L	.	.	.	.	.	.	.	.	.	.	.	.	.	.
.	.	.	.	.	16b\JJ	.	16gg\JJ	.	.	.	.	.	.	.	.	.	.	.	.	.	.
.	.	.	.	.	.	.	8qaa/	.	.	.	.	.	.	.	.	.	.	.	.	.	.
8D\L	7 4 2	.	8e\L	.	16cc#\LL	.	8gg\L	.	2D\	-cem	2e\	-cem	2e\	-cem	.	2cc#\	-cem	2D/	2e\	2cc#\	.
.	.	.	.	.	16cc#\	.	.	.	.	.	.	.	.	.	.	.	.	.	.	.	.
8D\	.	.	8e\	.	16cc#\	.	16ff#\L	.	.	.	.	.	.	.	.	.	.	.	.	.	.
.	.	.	.	.	16cc#\	.	16gg\JJ	.	.	.	.	.	.	.	.	.	.	.	.	.	.
.	.	.	.	.	.	.	8qaa/	.	.	.	.	.	.	.	.	.	.	.	.	.	.
8D\	.	.	8e\	.	16cc#\	.	8gg\L	.	.	.	.	.	.	.	.	.	.	.	.	.	.
.	.	.	.	.	16cc#\	.	.	.	.	.	.	.	.	.	.	.	.	.	.	.	.
8D\J	.	.	8e\J	.	16cc#\	.	16ff#\L	.	.	.	.	.	.	.	.	.	.	.	.	.	.
.	.	.	.	.	16cc#\JJ	.	16gg\JJ	.	.	.	.	.	.	.	.	.	.	.	.	.	.
!	!	!	!	!	!	!	!LO:LB:g=original	!	!LO:LB:g=original	!	!	!	!	!	!	!	!	!LO:LB:g=original	!	!	!
=69	=69	=69	=69	=69	=69	=69	=69	=69	=69	=69	=69	=69	=69	=69	=69	=69	=69	=69	=69	=69	=69
*Xtremolo	*	*	*Xtremolo	*	*	*	*tremolo	*	*	*	*	*	*	*	*	*	*	*	*	*	*
4D\	.	.	4d\	.	16dd\LL	.	4ff#\	.	4D\	do-	4d\	do-	4f#\	do-	.	4dd\	Do-	4d\	4e\	4dd\	4ff#\
.	.	.	.	.	16dd\	.	.	.	.	.	.	.	.	.	.	.	.	.	.	.	.
.	.	.	.	.	16dd\	.	.	.	.	.	.	.	.	.	.	.	.	.	.	.	.
.	.	.	.	.	16dd\JJ	.	.	.	.	.	.	.	.	.	.	.	.	.	.	.	.
8F#\L	.	.	8d\L	.	16a\LL	.	16aa\LL	.	4F#\	-na	4d\	-na	4f#\	-na	.	4a\	-na	4r	4r	4a\	2aa\
.	.	.	.	.	16a\	.	16aa\	.	.	.	.	.	.	.	.	.	.	.	.	.	.
8F#\J	.	.	8d\J	.	16a\	.	16aa\	.	.	.	.	.	.	.	.	.	.	.	.	.	.
.	.	.	.	.	16a\JJ	.	16aa\JJ	.	.	.	.	.	.	.	.	.	.	.	.	.	.
8G\L	.	.	8d\L	.	16b\LL	.	16aa\LL	.	4G\	no-	4d\	no-	4g\	no-	.	4b\	no-	2r	2r	2b\	.
.	.	.	.	.	16b\	.	16aa\	.	.	.	.	.	.	.	.	.	.	.	.	.	.
8G\	.	.	8d\	.	16b\	.	16aa\	.	.	.	.	.	.	.	.	.	.	.	.	.	.
.	.	.	.	.	16b\	.	16aa\JJ	.	.	.	.	.	.	.	.	.	.	.	.	.	.
8E\	.	.	8e\	.	16b\	.	16gg\LL	.	4E\	-bis	4e\	-bis	4g\	-bis	.	4b\	-bis	.	.	.	4gg\
.	.	.	.	.	16b\	.	16gg\	.	.	.	.	.	.	.	.	.	.	.	.	.	.
8E\J	.	.	8e\J	.	16b\	.	16gg\	.	.	.	.	.	.	.	.	.	.	.	.	.	.
.	.	.	.	.	16b\JJ	.	16gg\JJ	.	.	.	.	.	.	.	.	.	.	.	.	.	.
!	!	!	!	!	!	!	!	!	!	!	!	!	!LO:LB:g=original	!	!	!LO:LB:g=original	!	!	!	!	!
=70	=70	=70	=70	=70	=70	=70	=70	=70	=70	=70	=70	=70	=70	=70	=70	=70	=70	=70	=70	=70	=70
8C#\L	.	.	8e\L	.	16a/LL	.	16gg\LL	.	4C#/	pa-	4e\	pa-	4g\	pa-	.	2a\	pa-	1r	1r	2a/	4gg\
.	.	.	.	.	16a/	.	16gg\	.	.	.	.	.	.	.	.	.	.	.	.	.	.
8C#\	.	.	8e\	.	16a/	.	16gg\	.	.	.	.	.	.	.	.	.	.	.	.	.	.
.	.	.	.	.	16a/	.	16gg\JJ	.	.	.	.	.	.	.	.	.	.	.	.	.	.
8D\	.	.	8d\	.	16a/	.	16ff#\LL	.	4D/	.	2d\	.	2f#\	.	.	.	.	.	.	.	2ff#\
.	.	.	.	.	16a/	.	16ff#\	.	.	.	.	.	.	.	.	.	.	.	.	.	.
8D\J	.	.	8d\J	.	16a/	.	16ff#\	.	.	.	.	.	.	.	.	.	.	.	.	.	.
.	.	.	.	.	16a/JJ	.	16ff#\	.	.	.	.	.	.	.	.	.	.	.	.	.	.
8D\L	.	.	8d\L	.	16g/LL	.	16ff#\	.	4BB/	.	.	.	.	.	.	2g\	-cem	.	.	2g/	.
.	.	.	.	.	16g/	.	16ff#\	.	.	.	.	.	.	.	.	.	.	.	.	.	.
8D\	.	.	8d\	.	16g/	.	16ff#\	.	.	.	.	.	.	.	.	.	.	.	.	.	.
.	.	.	.	.	16g/	.	16ff#\JJ	.	.	.	.	.	.	.	.	.	.	.	.	.	.
8E\	.	.	8c#\	.	16g/	.	16ee\LL	.	4C#/	.	4c#\	-cem	4e\	.	.	.	.	.	.	.	4ee\
.	.	.	.	.	16g/	.	16ee\	.	.	.	.	.	.	.	.	.	.	.	.	.	.
8E\J	.	.	8c#\J	.	16g/	.	16ee\	.	.	.	.	.	.	.	.	.	.	.	.	.	.
.	.	.	.	.	16g/JJ	.	16ee\JJ	.	.	.	.	.	.	.	.	.	.	.	.	.	.
!	!	!	!	!	!	!	!	!	!	!	!	!	!	!	!	!	!	!	!	!	!LO:LB:g=original
=71	=71	=71	=71	=71	=71	=71	=71	=71	=71	=71	=71	=71	=71	=71	=71	=71	=71	=71	=71	=71	=71
*	*	*	*	*	*	*	*	*	*	*	*	*ij	*	*	*	*	*	*	*	*	*
8D\L	.	.	8A/L	.	16g/LL	.	16ee\LL	.	4D\	.	4A\	pa-	1d	.	.	2f#/	pa-	2r	2r	2f#/	4dd\
.	.	.	.	.	16g/	.	16ee\	.	.	.	.	.	.	.	.	.	.	.	.	.	.
8D\	.	.	8A/	.	16g/	.	16ee\	.	.	.	.	.	.	.	.	.	.	.	.	.	.
.	.	.	.	.	16g/	.	16ee\JJ	.	.	.	.	.	.	.	.	.	.	.	.	.	.
8B\	.	.	8B/	.	16g/	.	16dd\LL	.	4B\	.	4B\	.	.	.	.	.	.	.	.	.	4dd\
.	.	.	.	.	16g/	.	16dd\	.	.	.	.	.	.	.	.	.	.	.	.	.	.
8B\J	.	.	8B/J	.	16g/	.	16dd\	.	.	.	.	.	.	.	.	.	.	.	.	.	.
.	.	.	.	.	16g/JJ	.	16dd\JJ	.	.	.	.	.	.	.	.	.	.	.	.	.	.
*tremolo	*	*	*tremolo	*	*	*	*	*	*	*	*	*	*	*	*	*	*	*	*	*	*
8G#X\L	6	.	8B/L	.	16f#/LL	.	16dd\LL	.	2G#X\	.	2B\	.	.	.	.	2e/	.	4e\	4e\	2e/	2dd\
.	3	.	.	.	16f#/	.	16dd\	.	.	.	.	.	.	.	.	.	.	.	.	.	.
8G#X\	.	.	8B/	.	16f#/	.	16dd\	.	.	.	.	.	.	.	.	.	.	.	.	.	.
.	.	.	.	.	16f#/	.	16dd\	.	.	.	.	.	.	.	.	.	.	.	.	.	.
8G#X\	.	.	8B/	.	16f#/	.	16dd\	.	.	.	.	.	.	.	.	.	.	4e\	4e\	.	.
.	.	.	.	.	16f#/	.	16dd\	.	.	.	.	.	.	.	.	.	.	.	.	.	.
8G#X\J	.	.	8B/J	.	16f#/	.	16dd\	.	.	.	.	.	.	.	.	.	.	.	.	.	.
.	.	.	.	.	16f#/JJ	.	16dd\JJ	.	.	.	.	.	.	.	.	.	.	.	.	.	.
!LO:LB:g=original	!	!	!	!	!	!	!	!	!	!	!	!	!	!	!	!	!	!	!LO:LB:g=original	!	!
=72	=72	=72	=72	=72	=72	=72	=72	=72	=72	=72	=72	=72	=72	=72	=72	=72	=72	=72	=72	=72	=72
!	!	!	!	!LO:DY:b	!	!	!	!	!	!	!	!	!	!	!	!	!	!	!	!	!
4A\	.	.	4A/	p	4e/	.	4cc#\	.	4A\	-cem	4A\	-cem	4c#\	-cem	.	4e/	-cem	4A/	4e\	4e/	4cc#\
*Xtremolo	*	*	*	*	*Xtremolo	*	*Xtremolo	*	*	*	*	*Xij	*	*	*	*	*	*	*	*	*
4r	.	.	4r	.	4r	.	4r	.	4r	.	4r	.	4r	.	.	4r	.	4r	4r	4r	4r
2r	.	.	2r	.	2r	.	2r	.	2r	.	2r	.	2r	.	.	2r	.	2r	2r	2r	2r
=73	=73	=73	=73	=73	=73	=73	=73	=73	=73	=73	=73	=73	=73	=73	=73	=73	=73	=73	=73	=73	=73
1r	.	.	4A/	.	8c#/L	.	8e/L	.	0r	.	0r	.	0r	.	.	0r	.	1r	1r	0r	0r
.	.	.	.	.	8A/	.	8a/	.	.	.	.	.	.	.	.	.	.	.	.	.	.
.	.	.	4r	.	8c#/	.	8e/	.	.	.	.	.	.	.	.	.	.	.	.	.	.
.	.	.	.	.	8A/J	.	8a/J	.	.	.	.	.	.	.	.	.	.	.	.	.	.
.	.	.	2r	.	8d/L	.	8f#/L	.	.	.	.	.	.	.	.	.	.	.	.	.	.
.	.	.	.	.	8A/	.	8a/	.	.	.	.	.	.	.	.	.	.	.	.	.	.
.	.	.	.	.	8d/	.	8f#/	.	.	.	.	.	.	.	.	.	.	.	.	.	.
.	.	.	.	.	8A/J	.	8a/J	.	.	.	.	.	.	.	.	.	.	.	.	.	.
!	!	!	!LO:LB:g=original	!	!	!	!	!	!	!	!	!	!	!	!	!	!	!	!	!	!
=74	=74	=74	=74	=74	=74	=74	=74	=74	=74	=74	=74	=74	=74	=74	=74	=74	=74	=74	=74	=74	=74
8c#\L|	.	.	4A/	.	8e/L	.	8g/L	.	.	.	.	.	.	.	.	.	.	2e\	2g\	.	.
8A\|	.	.	.	.	8r	.	8a/	.	.	.	.	.	.	.	.	.	.	.	.	.	.
8c#\|	.	.	4r	.	8e/J	.	8g/	.	.	.	.	.	.	.	.	.	.	.	.	.	.
8A\J|	.	.	.	.	8r	.	8a/J	.	.	.	.	.	.	.	.	.	.	.	.	.	.
!LO:TX:t=P:problem:mixed beam	!	!	!	!	!LO:LB:g=original	!	!	!	!	!	!	!	!	!	!	!	!	!	!	!	!
8d\L|	.	.	2r	.	8d/L	.	8f#/L	.	.	.	.	.	.	.	.	.	.	2d\	2f#\	.	.
8A\|	.	.	.	.	8r	.	8a/	.	.	.	.	.	.	.	.	.	.	.	.	.	.
8d\|	.	.	.	.	8d/J	.	8f#/	.	.	.	.	.	.	.	.	.	.	.	.	.	.
8D/J|	.	.	.	.	8r	.	8a/J	.	.	.	.	.	.	.	.	.	.	.	.	.	.
=75	=75	=75	=75	=75	=75	=75	=75	=75	=75	=75	=75	=75	=75	=75	=75	=75	=75	=75	=75	=75	=75
4A\	.	.	4A/	.	4c#/	.	8e/	.	2A\	do-	2c#\	do-	2e\	Do-	.	2a\	do-	4A/	2e\	1cc#	1ee
.	.	.	.	.	.	.	4a\	.	.	.	.	.	.	.	.	.	.	.	.	.	.
4r	.	.	4r	.	4r	.	.	.	.	.	.	.	.	.	.	.	.	4r	.	.	.
.	.	.	.	.	.	.	4cc#\	.	.	.	.	.	.	.	.	.	.	.	.	.	.
2r	.	.	2r	.	2r	.	.	.	2A\	-na	2c#\	-na	2e\	-na	.	2a\	-na	2r	2r	.	.
.	.	.	.	.	.	.	4ee\	.	.	.	.	.	.	.	.	.	.	.	.	.	.
.	.	.	.	.	.	.	8aa\	.	.	.	.	.	.	.	.	.	.	.	.	.	.
!	!	!	!	!	!	!	!LO:LB:g=original	!	!	!	!LO:LB:g=original	!	!	!	!	!	!	!	!	!	!
=76	=76	=76	=76	=76	=76	=76	=76	=76	=76	=76	=76	=76	=76	=76	=76	=76	=76	=76	=76	=76	=76
0r	.	.	4A/	.	4c#/	.	8aa\	.	2A\	no-	2c#\	no-	2e\	no-	.	2a\	no-	0r	0r	1cc#	1ee
.	.	.	.	.	.	.	4ee\	.	.	.	.	.	.	.	.	.	.	.	.	.	.
.	.	.	4r	.	4r	.	.	.	.	.	.	.	.	.	.	.	.	.	.	.	.
.	.	.	.	.	.	.	4cc#\	.	.	.	.	.	.	.	.	.	.	.	.	.	.
.	.	.	2r	.	2r	.	.	.	2A\	-bis	2c#\	-bis	2e\	-bis	.	2a\	-bis	.	.	.	.
.	.	.	.	.	.	.	4a\	.	.	.	.	.	.	.	.	.	.	.	.	.	.
.	.	.	.	.	.	.	8e/	.	.	.	.	.	.	.	.	.	.	.	.	.	.
=77	=77	=77	=77	=77	=77	=77	=77	=77	=77	=77	=77	=77	=77	=77	=77	=77	=77	=77	=77	=77	=77
!	!	!	!	!	!	!	!	!LO:DY:b	!	!	!	!	!LO:TX:a:t=2.	!	!	!	!	!	!	!	!
.	.	.	4A/	.	8c#/L	.	8e/L	p	0r	.	0r	.	0r	.	.	0r	.	.	.	0r	0r
.	.	.	.	.	8A/	.	8a/	.	.	.	.	.	.	.	.	.	.	.	.	.	.
.	.	.	4r	.	8c#/	.	8e/	.	.	.	.	.	.	.	.	.	.	.	.	.	.
.	.	.	.	.	8A/J	.	8a/J	.	.	.	.	.	.	.	.	.	.	.	.	.	.
.	.	.	2r	.	8d/L	.	8f#/L	.	.	.	.	.	.	.	.	.	.	.	.	.	.
.	.	.	.	.	8A/	.	8a/	.	.	.	.	.	.	.	.	.	.	.	.	.	.
.	.	.	.	.	8d/	.	8f#/	.	.	.	.	.	.	.	.	.	.	.	.	.	.
.	.	.	.	.	8A/J	.	8a/J	.	.	.	.	.	.	.	.	.	.	.	.	.	.
=78	=78	=78	=78	=78	=78	=78	=78	=78	=78	=78	=78	=78	=78	=78	=78	=78	=78	=78	=78	=78	=78
8c#\L|	.	.	4A/	.	8e/L	.	8g/L	.	.	.	.	.	.	.	.	.	.	2e\	2g\	.	.
8A\|	.	.	.	.	8r	.	8a/	.	.	.	.	.	.	.	.	.	.	.	.	.	.
8c#\|	.	.	4r	.	8e/	.	8g/	.	.	.	.	.	.	.	.	.	.	.	.	.	.
8A\J|	.	.	.	.	8r	.	8a/J	.	.	.	.	.	.	.	.	.	.	.	.	.	.
!LO:TX:t=P:problem:mixed beam	!	!	!	!	!	!	!	!	!	!	!	!	!	!	!	!	!	!	!	!	!
8d\L|	.	.	2r	.	8d/	.	8f#/L	.	.	.	.	.	.	.	.	.	.	2d\	2f#\	.	.
8A\|	.	.	.	.	8r	.	8a/	.	.	.	.	.	.	.	.	.	.	.	.	.	.
8d\|	.	.	.	.	8d/J	.	8f#/	.	.	.	.	.	.	.	.	.	.	.	.	.	.
8D/J|	.	.	.	.	8r	.	8a/J	.	.	.	.	.	.	.	.	.	.	.	.	.	.
=79	=79	=79	=79	=79	=79	=79	=79	=79	=79	=79	=79	=79	=79	=79	=79	=79	=79	=79	=79	=79	=79
*tremolo	*	*	*	*	*	*	*	*	*	*	*	*	*	*	*	*	*	*	*	*	*
8G#X\L	.	.	4G#X/	.	8d/	.	8fn/	.	1G#X	pa-	1c#	pa-	1d	pa-	.	1fn	pa-	1r	1r	2fn/	2dd\
8G#X\	.	.	.	.	4d/	.	4f/	.	.	.	.	.	.	.	.	.	.	.	.	.	.
8G#X\	.	.	4G#/	.	.	.	.	.	.	.	.	.	.	.	.	.	.	.	.	.	.
8G#X\J	.	.	.	.	4d/	.	4f/	.	.	.	.	.	.	.	.	.	.	.	.	.	.
8G#\L	.	.	4G#/	.	.	.	.	.	.	.	.	.	.	.	.	.	.	.	.	2f/	2dd\
8G#\	.	.	.	.	4d/	.	4f/	.	.	.	.	.	.	.	.	.	.	.	.	.	.
8G#\	.	.	4G#/	.	.	.	.	.	.	.	.	.	.	.	.	.	.	.	.	.	.
8G#\J	.	.	.	.	8d/	.	8f/	.	.	.	.	.	.	.	.	.	.	.	.	.	.
*Xtremolo	*	*	*	*	*	*	*	*	*	*	*	*	*	*	*	*	*	*	*	*	*
!	!	!	!	!	!	!	!	!	!LO:LB:g=original	!	!	!	!	!	!	!	!	!	!	!LO:LB:g=original	!
=80	=80	=80	=80	=80	=80	=80	=80	=80	=80	=80	=80	=80	=80	=80	=80	=80	=80	=80	=80	=80	=80
!	!	!	!	!	!	!	!	!	!LO:SIC:v:s=G#	!	!	!	!	!	!	!	!	!	!	!	!
4A\	.	.	4A/	.	4c#/	.	4e/	.	4G\	-cem	4d\	-cem	4c#\	-cem	.	4e/	-cem	4A/	4e\	4e/	4cc#\
4A\	.	.	4A/	.	4c#/	.	4e/	.	4r	.	4r	.	4r	.	.	4r	.	4A/	4e\	4e/	4cc#\
4A\	.	.	4A/	.	4c#/	.	4e/	.	2r	.	2r	.	2r	.	.	2r	.	4A/	4e\	4e/	4cc#\
4A\	.	.	4r	.	4r	.	4r	.	.	.	.	.	.	.	.	.	.	4r	4r	4r	4r
!	!	!	!	!	!LO:LB:g=original	!	!	!	!	!	!	!	!	!	!	!	!	!	!	!	!
=81	=81	=81	=81	=81	=81	=81	=81	=81	=81	=81	=81	=81	=81	=81	=81	=81	=81	=81	=81	=81	=81
!LO:TX:a:t=tut&colon;	!	!LO:DY:b	!	!	!	!	!	!	!	!	!	!	!	!	!	!	!	!	!	!	!
8F#\L	.	f	8f#\L	.	8a/L|	.	8.aT\L	.	8F#\L	do-	4F#/	do-	8a\L	Do-	.	4a\	do-	4D/	4d\	2a\	4a\
8E\	.	.	8e\	.	8g/|	.	.	.	8E\J	.	.	.	8g\J	.	.	.	.	.	.	.	.
.	.	.	.	.	.	.	(32b\LL	.	.	.	.	.	.	.	.	.	.	.	.	.	.
.	.	.	.	.	.	.	32cc#\JJJ)	.	.	.	.	.	.	.	.	.	.	.	.	.	.
8D\	.	.	8d\	.	8f#/|	.	8dd\L	.	8D\L	-na	4A/	-na	8f#\L	-na	.	4dd\	-na	4r	4r	.	2dd\
8F#\J	.	.	8f#\J	.	8a/J|	.	8dd\J	.	8F#\J	.	.	.	8a\J	.	.	.	.	.	.	.	.
!LO:LB:g=original	!	!	!LO:LB:g=original	!	!	!	!	!	!	!	!	!	!LO:LB:g=original	!	!	!LO:LB:g=original	!	!	!	!	!
8G\L	.	.	8g\L	.	8b/L|	.	(8.b\L	.	8G\L	no-	4G/	no-	8b\L	no-	.	4b\	no-	2r	2r	2b\	.
8F#\	.	.	8f#\	.	8a/|	.	.	.	8F#\J	.	.	.	8a\J	.	.	.	.	.	.	.	.
.	.	.	.	.	.	.	32cc#\LL	.	.	.	.	.	.	.	.	.	.	.	.	.	.
.	.	.	.	.	.	.	32dd\JJJ)	.	.	.	.	.	.	.	.	.	.	.	.	.	.
8E\	.	.	8e\	.	8g/|	.	8ee\L	.	8E\L	-bis	4B/	-bis	8g\L	-bis	.	4ee\	-bis	.	.	.	4ee\
8G\J	.	.	8g\J	.	8b/J|	.	8ee\J	.	8G\J	.	.	.	8b\J	.	.	.	.	.	.	.	.
!	!	!	!	!	!	!	!LO:LB:g=original	!	!	!	!	!	!	!	!	!	!	!LO:LB:g=original	!	!	!
=82	=82	=82	=82	=82	=82	=82	=82	=82	=82	=82	=82	=82	=82	=82	=82	=82	=82	=82	=82	=82	=82
8A\L	.	.	8a\L	.	8cc#\L	.	8.cc#\L	.	8A\L	pa-	4A\	pa-	8cc#\L	pa-	.	4cc#\	pa-	00r	00r	2cc#\	4ee\
8G\	.	.	8g\	.	8b\	.	.	.	8G\J	.	.	.	8b\J	.	.	.	.	.	.	.	.
.	.	.	.	.	.	.	32dd\LL	.	.	.	.	.	.	.	.	.	.	.	.	.	.
.	.	.	.	.	.	.	32ee\JJJ	.	.	.	.	.	.	.	.	.	.	.	.	.	.
8F#\	.	.	8f#\	.	8a\	.	8ff#\L	.	8F#\L	-cem	4c#\	-cem	8a\L	-cem	.	4ff#\	-cem	.	.	.	2ff#\
8A\J	.	.	8a\J	.	8cc#\J	.	8ff#\J	.	8A\J	.	.	.	8cc#\J	.	.	.	.	.	.	.	.
8B\L	.	.	8b\L	.	8dd\L	.	8.dd\L	.	8B\L	do-	4B\	o-	8dd\L	do-	.	4dd\	do-	.	.	2dd\	.
8A\	.	.	8a\	.	8cc#\	.	.	.	8A\J	.	.	.	8cc#\J	.	.	.	.	.	.	.	.
.	.	.	.	.	.	.	32ee\LL	.	.	.	.	.	.	.	.	.	.	.	.	.	.
.	.	.	.	.	.	.	32ff#\JJJ	.	.	.	.	.	.	.	.	.	.	.	.	.	.
8G\	.	.	8g\	.	8b\	.	8gg\L	.	8G\L	-na	4d\	-na	8b\L	-na	.	4gg\	-na	.	.	.	4gg\
8B\J	.	.	8b\J	.	8dd\J	.	8gg\J	.	8B\J	.	.	.	8d\J	.	.	.	.	.	.	.	.
=83	=83	=83	=83	=83	=83	=83	=83	=83	=83	=83	=83	=83	=83	=83	=83	=83	=83	=83	=83	=83	=83
8c#\L	.	.	8cc#\L	.	8ee\L	.	8.ee\L	.	8c#\L	no-	4c#\	no-	8e\L	no-	.	4ee\	no-	.	.	2ee\	4gg\
8B\	.	.	8b\	.	8dd\	.	.	.	8B\J	.	.	.	8d\	.	.	.	.	.	.	.	.
.	.	.	.	.	.	.	32ff#\LL	.	.	.	.	.	.	.	.	.	.	.	.	.	.
.	.	.	.	.	.	.	32gg\JJJ	.	.	.	.	.	.	.	.	.	.	.	.	.	.
8A\	.	.	8a\	.	8cc#\	.	8aa\L	.	8A\L	-bis	4e\	-bis	8c#\	-bis	.	4aa\	-bis	.	.	.	4aa\
8c#\J	.	.	8cc#\J	.	8ee\J	.	8aa\J	.	8c#\J	.	.	.	8e\J	.	.	.	.	.	.	.	.
8d\L	.	.	8dd\L	.	4dd\	.	4ff#\	.	8d\L	pa-	4f#\	pa-	4d\	pa-	.	4ff#\	pa-	.	.	2ff#\	2aa\
8A\	.	.	8a\	.	.	.	.	.	8A\	.	.	.	.	.	.	.	.	.	.	.	.
*	*	*	*	*	*tremolo	*	*tremolo	*	*	*	*	*	*	*	*	*	*	*	*	*	*
8F#\	.	.	8f#\	.	16a/LL	.	16aa\LL	.	8F#\	-cem	4d\	-cem	4f#\	-cem	.	4aa\	-cem	.	.	.	.
.	.	.	.	.	16a/	.	16aa\	.	.	.	.	.	.	.	.	.	.	.	.	.	.
8D\J	.	.	8d\J	.	16a/	.	16aa\	.	8D\J	.	.	.	.	.	.	.	.	.	.	.	.
.	.	.	.	.	16a/JJ	.	16aa\JJ	.	.	.	.	.	.	.	.	.	.	.	.	.	.
!	!	!	!	!	!	!	!	!	!	!	!LO:LB:g=original	!	!	!	!	!	!	!	!	!	!
=84	=84	=84	=84	=84	=84	=84	=84	=84	=84	=84	=84	=84	=84	=84	=84	=84	=84	=84	=84	=84	=84
*tremolo	*	*	*	*	*	*	*	*	*	*	*	*	*	*	*	*	*	*	*	*	*
8G\L	.	.	8g\L	.	16b\LL	.	16aa\LL	.	4G\	do-	4d\	Do-	4b\	do-	.	4aa\	do-	.	.	2b\	4aa\
.	.	.	.	.	16b\	.	16aa\	.	.	.	.	.	.	.	.	.	.	.	.	.	.
8G\	.	.	8g\	.	16b\	.	16aa\	.	.	.	.	.	.	.	.	.	.	.	.	.	.
.	.	.	.	.	16b\	.	16aa\JJ	.	.	.	.	.	.	.	.	.	.	.	.	.	.
8G\	.	.	8g\	.	16b\	.	16gg\LL	.	4G\	-na	4d\	-na	4b\	-na	.	4gg\	-na	.	.	.	2gg\
.	.	.	.	.	16b\	.	16gg\	.	.	.	.	.	.	.	.	.	.	.	.	.	.
8G\J	.	.	8g\J	.	16b\	.	16gg\	.	.	.	.	.	.	.	.	.	.	.	.	.	.
.	.	.	.	.	16b\JJ	.	16gg\	.	.	.	.	.	.	.	.	.	.	.	.	.	.
*Xtremolo	*	*	*Xtremolo	*	*	*	*	*	*	*	*	*	*	*	*	*	*	*	*	*	*
!	!	!	!	!	!	!	!	!	!LO:LB:g=original	!	!	!	!	!	!	!	!	!	!	!	!
8A\L	.	.	8a\L	.	16cc#\LL	.	16gg\	.	4A\	no-	4c#\	no-	4cc#\	no-	.	4gg\	no-	.	.	4cc#\	.
.	.	.	.	.	16cc#\	.	16gg\	.	.	.	.	.	.	.	.	.	.	.	.	.	.
8A\	.	.	8a\	.	16cc#\	.	16gg\	.	.	.	.	.	.	.	.	.	.	.	.	.	.
.	.	.	.	.	16cc#\JJ	.	16gg\JJ	.	.	.	.	.	.	.	.	.	.	.	.	.	.
8B\	.	.	8b\	.	16dd\LL	.	16ff#\LL	.	4B\	-bis	4B\	-bis	4dd\	-bis	.	4ff#\	-bis	.	.	4dd\	4ff#\
.	.	.	.	.	16dd\	.	16ff#\	.	.	.	.	.	.	.	.	.	.	.	.	.	.
8B\J	.	.	8b\J	.	16dd\	.	16ff#\	.	.	.	.	.	.	.	.	.	.	.	.	.	.
.	.	.	.	.	16dd\JJ	.	16ff#\JJ	.	.	.	.	.	.	.	.	.	.	.	.	.	.
=85	=85	=85	=85	=85	=85	=85	=85	=85	=85	=85	=85	=85	=85	=85	=85	=85	=85	=85	=85	=85	=85
*tremolo	*	*	*tremolo	*	*	*	*	*	*	*	*	*	*	*	*	*	*	*	*	*	*
8G\L	.	.	8g\L	.	16b\LL	.	16ff#\LL	.	2G\	no-	2B\	pa-	2b\	pa-	.	4ff#\	pa-	.	.	2b/	4ff#\
.	.	.	.	.	16b\	.	16ff#\	.	.	.	.	.	.	.	.	.	.	.	.	.	.
8G\	.	.	8g\	.	16b\	.	16ff#\	.	.	.	.	.	.	.	.	.	.	.	.	.	.
.	.	.	.	.	16b\	.	16ff#\JJ	.	.	.	.	.	.	.	.	.	.	.	.	.	.
8G\	.	.	8g\	.	16b\	.	16ee\LL	.	.	.	.	.	.	.	.	2ee\	.	.	.	.	2ee\
.	.	.	.	.	16b\	.	16ee\	.	.	.	.	.	.	.	.	.	.	.	.	.	.
8G\J	.	.	8g\J	.	16b\	.	16ee\	.	.	.	.	.	.	.	.	.	.	.	.	.	.
.	.	.	.	.	16b\JJ	.	16ee\	.	.	.	.	.	.	.	.	.	.	.	.	.	.
*	*	*	*Xtremolo	*	*	*	*	*	*	*	*	*	*	*	*	*	*	*	*	*	*
*Xtremolo	*	*	*	*	*	*	*	*	*	*	*	*	*	*	*	*	*	*	*	*	*
8G\L	.	.	8c#\L	.	16a\LL	.	16ee\	.	4G\	-bis	4c#\	.	2a\	-cem	.	.	.	.	.	2a/	.
.	.	.	.	.	16a\	.	16ee\	.	.	.	.	.	.	.	.	.	.	.	.	.	.
8G\	.	.	8c#\	.	16a\	.	16ee\	.	.	.	.	.	.	.	.	.	.	.	.	.	.
.	.	.	.	.	16a\	.	16ee\JJ	.	.	.	.	.	.	.	.	.	.	.	.	.	.
8F#\	.	.	8d\	.	16a\	.	16dd\LL	.	4F#\	.	4d\	.	.	.	.	4dd\	-cem	.	.	.	4dd\
.	.	.	.	.	16a\	.	16dd\	.	.	.	.	.	.	.	.	.	.	.	.	.	.
8F#\J	.	.	8d\J	.	16a\	.	16dd\	.	.	.	.	.	.	.	.	.	.	.	.	.	.
.	.	.	.	.	16a\JJ	.	16dd\JJ	.	.	.	.	.	.	.	.	.	.	.	.	.	.
!	!	!	!LO:LB:g=original	!	!	!	!	!	!	!	!	!	!LO:LB:g=original	!	!	!	!	!	!	!	!
=86	=86	=86	=86	=86	=86	=86	=86	=86	=86	=86	=86	=86	=86	=86	=86	=86	=86	=86	=86	=86	=86
*	*	*	*	*	*	*	*	*	*	*	*	*	*	*ij	*	*	*	*	*	*	*
8E\L	.	.	8g\L	.	16g/LL	.	16dd\LL	.	4E\	pa-	2e\	.	2g\	pa-	.	4dd\	do-	4r	4r	2g/	4dd\
.	.	.	.	.	16g/	.	16dd\	.	.	.	.	.	.	.	.	.	.	.	.	.	.
8E\	.	.	8g\	.	16g/	.	16dd\	.	.	.	.	.	.	.	.	.	.	.	.	.	.
.	.	.	.	.	16g/	.	16dd\JJ	.	.	.	.	.	.	.	.	.	.	.	.	.	.
8A\	.	.	8a\	.	16g/	.	16cc#\LL	.	4A\	.	.	.	.	.	.	4cc#\	.	4A/	4e\	.	4cc#\
.	.	.	.	.	16g/	.	16cc#\	.	.	.	.	.	.	.	.	.	.	.	.	.	.
8A\J	.	.	8a\J	.	16g/	.	16cc#\	.	.	.	.	.	.	.	.	.	.	.	.	.	.
.	.	.	.	.	16g/JJ	.	16cc#\JJ	.	.	.	.	.	.	.	.	.	.	.	.	.	.
*	*	*	*	*	*	*	*Xtremolo	*	*	*	*	*	*	*	*	*	*	*	*	*	*
*	*	*	*	*	*Xtremolo	*	*	*	*	*	*	*	*	*	*	*	*	*	*	*	*
!LO:TX:b:t=pleno	!	!	!	!	!	!	!	!	!	!	!	!	!	!	!	!LO:LB:g=original	!	!	!	!	!LO:LB:g=original
4D/	.	.	4a\	.	4f#/	.	4dd\	.	4D\	.	4c#\	-cem	4f#\	-cem	.	4cc#\	-na	4F#/	4d\	4f#/	4dd\
*	*	*	*	*	*	*	*	*	*	*	*	*	*	*Xij	*	*	*	*	*	*	*
4AA/	.	.	4a\	.	4a\ 4ee	.	4aa\	.	4AA/	.	4c#\	pa-	4a\	pa-	.	4dd\	.	4A/	4e\	4cc#\	4ee\
!LO:LB:g=original	!	!	!	!	!LO:LB:g=original	!	!LO:LB:g=original	!	!	!	!	!	!	!	!	!	!	!	!	!	!
=87	=87	=87	=87	=87	=87	=87	=87	=87	=87	=87	=87	=87	=87	=87	=87	=87	=87	=87	=87	=87	=87
4D\	.	.	4a\	.	4a\ 4ff#	.	4ddd\	.	4D\	.	4d\	.	2a\	.	.	4ff#\	pa-	4d\	4f#\	4dd\	4ff#\
4A\	.	.	4a\	.	4A/ 4e 4cc#	.	4a\ 4ee	.	4A\	.	4e\	.	.	.	.	4ee\	.	4A/	4e\	4cc#\	4ee\
!	!	!	!	!	!	!	!	!	!	!	!	!	!	!	!	!	!	!	!LO:LB:g=original	!	!
4D\	.	.	4a\	.	4A/ 4f# 4dd	.	4d\ 4a 4ff#	.	4D\	-cem	4f#\	-cem	4a\	-cem	.	4dd\	-cem	4d\	4f#\	4dd\	4ff#\
4r	.	.	4r	.	4r	.	4r	.	4r	.	4r	.	4r	.	.	4r	.	4r	4r	4r	4r
==	==	==	==	==	==	==	==	==	==	==	==	==	==	==	==	==	==	==	==	==	==
*-	*-	*-	*-	*-	*-	*-	*-	*-	*-	*-	*-	*-	*-	*-	*-	*-	*-	*-	*-	*-	*-
!!!system-decoration: [(g1)][(g2)][(g3)][(g4)][(g5)]
!!!ENC:Anna Matuszewska
!!!END:2021-01-21
!!!ENC: Marcin Jachim
!!!END: 2021-01-10
!!!RDF**kern: | = vertical stroke
